; generated by PrusaSlicer 2.9.4 on 2026-04-19 at 16:42:52 UTC


;
;

;
;

;
;

;
;
; 

; external perimeters extrusion width = 0.45mm
; perimeters extrusion width = 0.45mm
; infill extrusion width = 0.45mm
; solid infill extrusion width = 0.45mm
; top infill extrusion width = 0.42mm
; support material extrusion width = 0.40mm
; first layer extrusion width = 0.50mm

M73 P0 R66
M73 Q0 S71
M201 X4000 Y4000 Z200 E2500 ; sets maximum accelerations, mm/sec^2
M203 X300 Y300 Z40 E100 ; sets maximum feedrates, mm / sec
M204 P4000 R2500 T4000 ; sets acceleration (P, T) and retract acceleration (R), mm/sec^2
M205 X8.00 Y8.00 Z2.00 E10.00 ; sets the jerk limits, mm/sec
M205 S0 T0 ; sets the minimum extruding and travel feed rate, mm/sec

M486 S0
M486 AportHTarm_v1.stl
M486 S-1

;TYPE:Custom
M17 ; enable steppers
M862.1 P0.4 A0 F1 ; nozzle check
M862.3 P "MK4S" ; printer model check
M862.5 P2 ; g-code level check
M862.6 P"Input shaper" ; FW feature check
M115 U6.2.6+8948

M555 X34.5214 Y86 W180.957 H34

G90 ; use absolute coordinates
M83 ; extruder relative mode

M140 S60 ; set bed temp
M104 T0 S170 ; set extruder temp for bed leveling
M109 T0 R170 ; wait for temp

M84 E ; turn off E motor

G28 ; home all without mesh bed level

G1 X42 Y-4 Z5 F4800

M302 S155 ; lower cold extrusion limit to 155C


G1 E-2 F2400 ; retraction


M84 E ; turn off E motor

G29 P9 X10 Y-4 W32 H4

M106 S100

G0 Z40 F10000

M190 S60 ; wait for bed temp

M107

;
; MBL
;
M84 E ; turn off E motor
G29 P1 ; invalidate mbl & probe print area
G29 P1 X0 Y0 W50 H20 C ; probe near purge place
G29 P3.2 ; interpolate mbl probes
G29 P3.13 ; extrapolate mbl outside probe area
G29 A ; activate mbl

; prepare for purge
M104 S230
G0 X0 Y-4 Z15 F4800 ; move away and ready for the purge
M109 S230

G92 E0
M569 S0 E ; set spreadcycle mode for extruder

;
; Extrude purge line
;
G92 E0 ; reset extruder position
G1 E2 F2400 ; deretraction after the initial one before nozzle cleaning
G0 E7 X15 Z0.2 F500 ; purge
G0 X25 E4 F500 ; purge
G0 X35 E4 F650 ; purge
G0 X45 E4 F800 ; purge
G0 X48 Z0.05 F8000 ; wipe, move close to the bed
G0 X51 Z0.2 F8000 ; wipe, move quickly away from the bed

G92 E0
M221 S100 ; set flow to 100%
G21 ; set units to millimeters
G90 ; use absolute coordinates
M83 ; use relative distances for extrusion
M572 S0.03 ; Filament gcode

M142 S36 ; set heatbreak target temp
M107
;LAYER_CHANGE
;Z:0.2
;HEIGHT:0.2
G1 E-.7 F2100
G1 Z.8 F720
M486 S0
G1 X37.684 Y93.166 F18000
G1 Z.2 F720
G1 E.7 F1500
M204 P500
;TYPE:Support material interface
;WIDTH:0.4
G1 F2400
G1 X38.507 Y93.187 E.02444
G1 X37.684 Y92.363 E.03458
G1 X37.684 Y91.835 E.01568
G1 X37.959 Y91.835 E.00817
G1 X39.31 Y93.186 E.05673
G1 X40.112 Y93.185 E.02381
G1 X38.761 Y91.834 E.05673
G1 X39.563 Y91.834 E.02381
G1 X40.914 Y93.184 E.05671
G1 X41.716 Y93.184 E.02381
G1 X40.366 Y91.833 E.05671
G1 X41.168 Y91.832 E.02381
G1 X42.519 Y93.183 E.05673
G1 X43.321 Y93.182 E.02381
G1 X41.971 Y91.832 E.05669
G1 X42.773 Y91.831 E.02381
G1 X44.123 Y93.182 E.05671
G1 X44.926 Y93.181 E.02384
G1 X43.575 Y91.83 E.05673
G1 X44.378 Y91.83 E.02384
G1 X45.728 Y93.18 E.05669
G1 X46.53 Y93.179 E.02381
G1 X45.18 Y91.829 E.05669
G1 X45.982 Y91.829 E.02381
G1 X47.332 Y93.179 E.05669
G1 X48.135 Y93.178 E.02384
G1 X46.785 Y91.828 E.05669
G1 X47.587 Y91.827 E.02381
G1 X48.937 Y93.177 E.05669
G1 X49.739 Y93.176 E.02381
G1 X48.389 Y91.827 E.05667
G1 X49.192 Y91.826 E.02384
G1 X50.541 Y93.176 E.05667
G1 X51.344 Y93.175 E.02384
G1 X49.994 Y91.825 E.05669
G1 X50.796 Y91.825 E.02381
G1 X52.146 Y93.174 E.05667
G1 X52.948 Y93.173 E.02381
G1 X51.599 Y91.824 E.05664
G1 X52.401 Y91.823 E.02381
G1 X53.75 Y93.173 E.05667
G1 X54.553 Y93.172 E.02384
G1 X53.203 Y91.823 E.05667
G1 X53.271 Y91.823 E.00202
G1 X54.007 Y91.823 E.02185
G1 X55.355 Y93.171 E.0566
G1 X56.157 Y93.17 E.02381
G1 X54.811 Y91.824 E.05652
G1 X55.614 Y91.825 E.02384
G1 X56.959 Y93.17 E.05648
G1 X57.762 Y93.169 E.02384
G1 X56.418 Y91.825 E.05643
G1 X57.222 Y91.826 E.02387
G1 X58.564 Y93.168 E.05635
G1 X59.366 Y93.168 E.02381
G1 X58.026 Y91.827 E.05629
G1 X58.829 Y91.827 E.02384
G1 X60.169 Y93.167 E.05627
G1 X60.971 Y93.166 E.02381
G1 X59.633 Y91.828 E.05618
G1 X60.437 Y91.829 E.02387
G1 X61.773 Y93.165 E.0561
G1 X62.576 Y93.165 E.02384
G1 X61.24 Y91.83 E.05608
G1 X62.044 Y91.83 E.02387
G1 X63.379 Y93.165 E.05606
G1 X64.182 Y93.165 E.02384
G1 X62.848 Y91.831 E.05601
G1 X63.651 Y91.832 E.02384
G1 X64.985 Y93.165 E.05599
G1 X65.788 Y93.165 E.02384
G1 X64.455 Y91.832 E.05597
G1 X65.259 Y91.833 E.02387
G1 X66.591 Y93.165 E.05593
G1 X67.394 Y93.165 E.02384
G1 X66.063 Y91.834 E.05589
G1 X66.866 Y91.834 E.02384
G1 X68.197 Y93.165 E.05589
G1 X69 Y93.165 E.02384
G1 X67.67 Y91.835 E.05585
G1 X68.474 Y91.836 E.02387
G1 X69.803 Y93.165 E.0558
G1 X70.606 Y93.165 E.02384
G1 X69.277 Y91.837 E.05578
G1 X70.081 Y91.837 E.02387
G1 X71.409 Y93.165 E.05576
G1 X72.212 Y93.165 E.02384
G1 X70.885 Y91.838 E.05572
G1 X71.688 Y91.839 E.02384
G1 X73.015 Y93.165 E.0557
G1 X73.818 Y93.165 E.02384
G1 X72.492 Y91.839 E.05568
G1 X73.295 Y91.839 E.02384
G1 X74.621 Y93.165 E.05568
G1 X75.424 Y93.165 E.02384
G1 X74.098 Y91.839 E.05568
G1 X74.901 Y91.839 E.02384
G1 X76.227 Y93.165 E.05568
G1 X77.03 Y93.165 E.02384
G1 X75.704 Y91.839 E.05568
G1 X76.507 Y91.839 E.02384
G1 X77.833 Y93.165 E.05568
G1 X78.636 Y93.165 E.02384
G1 X77.31 Y91.839 E.05568
G1 X78.113 Y91.839 E.02384
G1 X79.439 Y93.165 E.05568
G1 X80.242 Y93.165 E.02384
G1 X78.916 Y91.839 E.05568
G1 X79.719 Y91.839 E.02384
G1 X81.045 Y93.165 E.05568
G1 X81.848 Y93.165 E.02384
G1 X80.522 Y91.839 E.05568
G1 X81.325 Y91.839 E.02384
G1 X82.651 Y93.165 E.05568
G1 X83.454 Y93.165 E.02384
G1 X82.128 Y91.839 E.05568
G1 X82.931 Y91.839 E.02384
G1 X84.257 Y93.165 E.05568
G1 X85.06 Y93.165 E.02384
G1 X83.734 Y91.839 E.05568
G1 X84.537 Y91.839 E.02384
G1 X85.863 Y93.165 E.05568
G1 X86.666 Y93.165 E.02384
G1 X85.34 Y91.839 E.05568
G1 X86.143 Y91.839 E.02384
G1 X87.469 Y93.165 E.05568
G1 X88.272 Y93.165 E.02384
G1 X86.946 Y91.839 E.05568
G1 X87.749 Y91.839 E.02384
M73 P0 R65
G1 X89.075 Y93.166 E.0557
G1 X89.878 Y93.166 E.02384
G1 X88.552 Y91.839 E.0557
G1 X89.355 Y91.839 E.02384
G1 X90.681 Y93.166 E.0557
G1 X91.484 Y93.166 E.02384
G1 X90.158 Y91.839 E.0557
G1 X90.961 Y91.839 E.02384
G1 X92.288 Y93.166 E.05572
G1 X93.091 Y93.166 E.02384
G1 X91.764 Y91.839 E.05572
G1 X92.567 Y91.839 E.02384
G1 X93.894 Y93.166 E.05572
G1 X94.697 Y93.166 E.02384
G1 X93.37 Y91.839 E.05572
G1 X94.173 Y91.839 E.02384
G1 X95.5 Y93.166 E.05572
G1 X96.303 Y93.166 E.02384
G1 X94.976 Y91.839 E.05572
G1 X95.779 Y91.839 E.02384
G1 X97.106 Y93.166 E.05572
G1 X97.909 Y93.166 E.02384
G1 X96.582 Y91.839 E.05572
G1 X97.385 Y91.839 E.02384
G1 X98.712 Y93.166 E.05572
G1 X99.515 Y93.166 E.02384
G1 X98.188 Y91.839 E.05572
G1 X98.991 Y91.839 E.02384
G1 X100.318 Y93.166 E.05572
G1 X101.121 Y93.166 E.02384
G1 X99.794 Y91.839 E.05572
G1 X100.597 Y91.839 E.02384
G1 X101.924 Y93.166 E.05572
G1 X102.727 Y93.166 E.02384
G1 X101.4 Y91.839 E.05572
G1 X102.203 Y91.839 E.02384
G1 X103.53 Y93.166 E.05572
G1 X104.333 Y93.166 E.02384
G1 X103.006 Y91.839 E.05572
G1 X103.809 Y91.839 E.02384
G1 X105.136 Y93.166 E.05572
G1 X105.939 Y93.166 E.02384
G1 X104.612 Y91.839 E.05572
G1 X105.415 Y91.839 E.02384
G1 X106.742 Y93.166 E.05572
G1 X107.545 Y93.166 E.02384
G1 X106.218 Y91.839 E.05572
G1 X107.021 Y91.839 E.02384
G1 X108.348 Y93.166 E.05572
G1 X109.151 Y93.166 E.02384
G1 X107.824 Y91.839 E.05572
G1 X108.627 Y91.839 E.02384
G1 X109.954 Y93.166 E.05572
G1 X110.757 Y93.166 E.02384
G1 X109.43 Y91.839 E.05572
G1 X110.233 Y91.839 E.02384
G1 X111.56 Y93.166 E.05572
G1 X112.363 Y93.166 E.02384
G1 X111.036 Y91.839 E.05572
G1 X111.839 Y91.839 E.02384
G1 X113.166 Y93.166 E.05572
G1 X113.969 Y93.166 E.02384
G1 X112.642 Y91.839 E.05572
G1 X113.445 Y91.839 E.02384
G1 X114.772 Y93.166 E.05572
G1 X115.575 Y93.166 E.02384
G1 X114.248 Y91.839 E.05572
G1 X115.051 Y91.839 E.02384
G1 X116.378 Y93.166 E.05572
G1 X117.181 Y93.166 E.02384
G1 X115.854 Y91.839 E.05572
G1 X116.657 Y91.839 E.02384
G1 X117.984 Y93.166 E.05572
G1 X118.787 Y93.166 E.02384
G1 X117.46 Y91.839 E.05572
G1 X118.263 Y91.839 E.02384
G1 X119.59 Y93.166 E.05572
G1 X120.393 Y93.166 E.02384
G1 X119.066 Y91.839 E.05572
G1 X119.869 Y91.839 E.02384
G1 X121.196 Y93.166 E.05572
G1 X121.999 Y93.166 E.02384
G1 X120.672 Y91.839 E.05572
G1 X121.475 Y91.839 E.02384
G1 X122.802 Y93.166 E.05572
G1 X123.605 Y93.166 E.02384
G1 X122.278 Y91.839 E.05572
G1 X123.081 Y91.839 E.02384
G1 X124.408 Y93.166 E.05572
G1 X125.211 Y93.166 E.02384
G1 X123.884 Y91.839 E.05572
G1 X124.687 Y91.839 E.02384
G1 X126.014 Y93.166 E.05572
G1 X126.817 Y93.166 E.02384
G1 X125.49 Y91.839 E.05572
G1 X126.293 Y91.839 E.02384
G1 X127.62 Y93.166 E.05572
G1 X128.423 Y93.166 E.02384
G1 X127.096 Y91.839 E.05572
G1 X127.899 Y91.839 E.02384
G1 X129.226 Y93.166 E.05572
G1 X130.029 Y93.166 E.02384
G1 X128.702 Y91.839 E.05572
G1 X129.505 Y91.839 E.02384
G1 X130.832 Y93.166 E.05572
G1 X131.635 Y93.166 E.02384
G1 X130.308 Y91.839 E.05572
G1 X131.111 Y91.839 E.02384
G1 X132.438 Y93.166 E.05572
G1 X133.241 Y93.166 E.02384
G1 X131.914 Y91.839 E.05572
G1 X132.717 Y91.839 E.02384
G1 X134.044 Y93.166 E.05572
G1 X134.847 Y93.166 E.02384
G1 X133.52 Y91.839 E.05572
G1 X134.323 Y91.839 E.02384
G1 X135.65 Y93.166 E.05572
G1 X136.453 Y93.166 E.02384
G1 X135.126 Y91.839 E.05572
G1 X135.929 Y91.839 E.02384
G1 X137.256 Y93.166 E.05572
G1 X138.059 Y93.166 E.02384
G1 X136.732 Y91.839 E.05572
G1 X137.535 Y91.839 E.02384
G1 X138.862 Y93.166 E.05572
G1 X139.665 Y93.166 E.02384
G1 X138.338 Y91.839 E.05572
G1 X139.141 Y91.839 E.02384
G1 X140.468 Y93.166 E.05572
G1 X141.271 Y93.166 E.02384
G1 X139.944 Y91.839 E.05572
G1 X140.747 Y91.839 E.02384
G1 X142.074 Y93.166 E.05572
G1 X142.877 Y93.166 E.02384
G1 X141.55 Y91.839 E.05572
G1 X142.353 Y91.839 E.02384
G1 X143.68 Y93.166 E.05572
G1 X144.483 Y93.166 E.02384
G1 X143.156 Y91.839 E.05572
G1 X143.959 Y91.839 E.02384
G1 X145.286 Y93.166 E.05572
G1 X146.089 Y93.166 E.02384
G1 X144.762 Y91.839 E.05572
G1 X145.565 Y91.839 E.02384
G1 X146.892 Y93.166 E.05572
G1 X147.695 Y93.166 E.02384
G1 X146.368 Y91.839 E.05572
G1 X147.171 Y91.839 E.02384
G1 X148.498 Y93.166 E.05572
G1 X149.301 Y93.166 E.02384
G1 X147.974 Y91.839 E.05572
G1 X148.777 Y91.839 E.02384
G1 X150.104 Y93.166 E.05572
G1 X150.907 Y93.166 E.02384
G1 X149.58 Y91.839 E.05572
G1 X150.383 Y91.839 E.02384
G1 X151.71 Y93.166 E.05572
G1 X152.513 Y93.166 E.02384
G1 X151.186 Y91.839 E.05572
G1 X151.989 Y91.839 E.02384
G1 X153.316 Y93.166 E.05572
G1 X154.119 Y93.166 E.02384
G1 X152.792 Y91.839 E.05572
G1 X153.595 Y91.839 E.02384
G1 X154.922 Y93.166 E.05572
G1 X155.725 Y93.166 E.02384
G1 X154.398 Y91.839 E.05572
G1 X155.201 Y91.839 E.02384
G1 X156.528 Y93.166 E.05572
G1 X157.331 Y93.166 E.02384
G1 X156.004 Y91.839 E.05572
G1 X156.807 Y91.839 E.02384
G1 X158.134 Y93.166 E.05572
G1 X158.937 Y93.166 E.02384
G1 X157.61 Y91.839 E.05572
G1 X158.414 Y91.839 E.02387
G1 X159.74 Y93.166 E.0557
G1 X160.543 Y93.166 E.02384
G1 X159.217 Y91.839 E.0557
G1 X160.02 Y91.839 E.02384
G1 X161.346 Y93.166 E.0557
G1 X162.149 Y93.166 E.02384
G1 X160.823 Y91.839 E.0557
G1 X161.626 Y91.839 E.02384
G1 X162.952 Y93.166 E.0557
G1 X163.755 Y93.166 E.02384
G1 X162.429 Y91.839 E.0557
G1 X163.232 Y91.839 E.02384
G1 X164.558 Y93.166 E.0557
G1 X165.361 Y93.166 E.02384
G1 X164.035 Y91.839 E.0557
G1 X164.838 Y91.839 E.02384
G1 X166.164 Y93.166 E.0557
G1 X166.967 Y93.166 E.02384
G1 X165.641 Y91.839 E.0557
G1 X166.444 Y91.839 E.02384
G1 X167.77 Y93.166 E.0557
G1 X168.573 Y93.166 E.02384
M73 Q0 S70
G1 X167.247 Y91.839 E.0557
G1 X168.05 Y91.839 E.02384
G1 X169.376 Y93.166 E.0557
G1 X170.179 Y93.166 E.02384
G1 X168.853 Y91.839 E.0557
G1 X169.656 Y91.839 E.02384
G1 X170.982 Y93.166 E.0557
G1 X171.785 Y93.166 E.02384
G1 X170.459 Y91.839 E.0557
G1 X171.262 Y91.839 E.02384
G1 X172.588 Y93.166 E.0557
G1 X173.391 Y93.166 E.02384
G1 X172.065 Y91.839 E.0557
G1 X172.868 Y91.839 E.02384
G1 X174.194 Y93.166 E.0557
G1 X174.998 Y93.166 E.02387
G1 X173.671 Y91.839 E.05572
G1 X174.474 Y91.839 E.02384
G1 X175.801 Y93.166 E.05572
G1 X176.604 Y93.166 E.02384
G1 X175.277 Y91.839 E.05572
G1 X176.08 Y91.839 E.02384
G1 X177.407 Y93.166 E.05572
G1 X178.21 Y93.166 E.02384
G1 X176.883 Y91.839 E.05572
G1 X177.685 Y91.839 E.02381
G1 X179.013 Y93.166 E.05574
G1 X179.816 Y93.166 E.02384
G1 X178.488 Y91.838 E.05576
G1 X179.29 Y91.838 E.02381
G1 X180.619 Y93.166 E.05578
G1 X181.422 Y93.166 E.02384
G1 X180.092 Y91.837 E.05583
G1 X180.895 Y91.836 E.02384
G1 X182.225 Y93.166 E.05585
G1 X183.028 Y93.166 E.02384
G1 X181.697 Y91.836 E.05587
G1 X182.499 Y91.835 E.02381
G1 X183.831 Y93.166 E.05591
G1 X184.634 Y93.166 E.02384
G1 X183.302 Y91.834 E.05593
G1 X184.104 Y91.834 E.02381
G1 X185.437 Y93.166 E.05595
G1 X186.239 Y93.166 E.02381
G1 X184.906 Y91.833 E.05597
G1 X185.709 Y91.832 E.02384
G1 X187.042 Y93.166 E.05599
G1 X187.845 Y93.166 E.02384
G1 X186.511 Y91.832 E.05601
G1 X187.313 Y91.831 E.02381
G1 X188.648 Y93.166 E.05606
G1 X189.452 Y93.166 E.02387
G1 X188.115 Y91.83 E.05612
G1 X188.918 Y91.829 E.02384
G1 X190.255 Y93.167 E.05616
G1 X191.059 Y93.168 E.02387
G1 X189.72 Y91.829 E.05622
G1 X190.522 Y91.828 E.02381
G1 X191.863 Y93.169 E.05631
G1 X192.667 Y93.169 E.02387
G1 X191.325 Y91.827 E.05635
G1 X192.127 Y91.827 E.02381
G1 X193.47 Y93.17 E.05639
G1 X194.274 Y93.171 E.02387
G1 X192.929 Y91.826 E.05648
G1 X193.732 Y91.825 E.02384
G1 X195.078 Y93.172 E.05654
G1 X195.882 Y93.172 E.02387
G1 X194.534 Y91.825 E.05658
G1 X195.336 Y91.824 E.02381
G1 X196.685 Y93.173 E.05664
G1 X197.489 Y93.174 E.02387
G1 X196.139 Y91.823 E.05671
G1 X196.729 Y91.823 E.01752
G1 X196.941 Y91.823 E.00629
G1 X198.293 Y93.175 E.05677
G1 X199.097 Y93.175 E.02387
G1 X197.745 Y91.823 E.05677
G1 X198.548 Y91.824 E.02384
G1 X199.9 Y93.176 E.05677
G1 X200.704 Y93.177 E.02387
G1 X199.352 Y91.825 E.05677
G1 X200.156 Y91.825 E.02387
G1 X201.508 Y93.178 E.05679
G1 X202.312 Y93.178 E.02387
G1 X200.959 Y91.826 E.05679
G1 X201.763 Y91.827 E.02387
G1 X203.115 Y93.179 E.05677
G1 X203.919 Y93.18 E.02387
G1 X202.567 Y91.827 E.05679
G1 X203.37 Y91.828 E.02384
G1 X204.723 Y93.18 E.05679
G1 X205.527 Y93.181 E.02387
G1 X204.174 Y91.829 E.05679
G1 X204.978 Y91.829 E.02387
G1 X206.33 Y93.182 E.05679
G1 X207.134 Y93.183 E.02387
G1 X205.781 Y91.83 E.05681
G1 X206.585 Y91.831 E.02387
G1 X207.938 Y93.183 E.05679
G1 X208.742 Y93.184 E.02387
G1 X207.389 Y91.831 E.05681
G1 X208.192 Y91.832 E.02384
G1 X209.545 Y93.185 E.05681
G1 X210.349 Y93.186 E.02387
G1 X208.996 Y91.833 E.05681
G1 X209.8 Y91.833 E.02387
G1 X211.153 Y93.186 E.05681
G1 X211.957 Y93.187 E.02387
G1 X210.603 Y91.834 E.05683
G1 X211.407 Y91.835 E.02387
G1 X212.316 Y92.744 E.03817
G1 X212.316 Y91.941 E.02384
G1 X212.211 Y91.835 E.00443
M204 P2500
G1 E-.7 F2100
M204 T4000
G1 X215.25 Y90.624 Z.257 F18000
G1 Z.2 F720
G1 E.7 F1500
M204 P500
;TYPE:Support material
;WIDTH:0.5
G1 F2400
G1 X215.25 Y119.376 E1.09276
G1 X213.045 Y119.378 E.0838
M73 P1 R65
G1 X212.752 Y119.086 E.01572
G1 X37.248 Y119.086 E6.67026
G1 X36.955 Y119.378 E.01572
M73 Q1 S70
G1 X34.75 Y119.376 E.0838
G1 X34.75 Y90.624 E1.09276
G1 X36.955 Y90.622 E.0838
G1 X37.248 Y90.914 E.01572
G1 X212.752 Y90.914 E6.67026
G1 X213.045 Y90.622 E.01572
G1 X215.181 Y90.624 E.08118
M204 P2500
G1 E-.7 F2100
G1 X188.984 Y94.743 Z.663 F18000
G1 X185.104 Y95.353 Z.723
G1 X181.225 Y95.963 Z.766
G1 X173.465 Y97.183 Z.8
G1 X37.25 Y118.598
G1 Z.2 F720
G1 E.7 F1500
M204 P500
G1 F2400
G1 X37.25 Y116.378 E.08437
G1 X212.75 Y116.378 E6.67011
G1 X212.75 Y118.598 E.08437
G1 X37.318 Y118.598 E6.66753
M204 P2500
G1 E-.7 F2100
G1 X48.25 Y113.75 Z.409 F18000
G1 Z.2 F720
G1 E.7 F1500
M204 P500
G1 F2400
G1 X48.25 Y96.25 E.66511
G1 X148.75 Y96.25 E3.81964
G1 X148.75 Y113.75 E.66511
G1 X48.319 Y113.75 E3.81701
M204 P2500
G1 X184.25 Y113.75 F18000
M204 P500
G1 F2400
G1 X184.25 Y96.25 E.66511
G1 X201.75 Y96.25 E.66511
G1 X201.75 Y113.75 E.66511
G1 X184.319 Y113.75 E.66249
M204 P2500
G1 E-.7 F2100
G1 X177.5 Y91.405 Z.608 F18000
G1 Z.2 F720
G1 E.7 F1500
M204 P500
G1 F2400
G1 X212.75 Y91.402 E1.33972
