; generated by PrusaSlicer 2.9.4 on 2026-02-14 at 00:07:11 UTC


;
;

;
;

;
;

;
;
; 

; external perimeters extrusion width = 0.45mm
; perimeters extrusion width = 0.45mm
; infill extrusion width = 0.45mm
; solid infill extrusion width = 0.45mm
; top infill extrusion width = 0.42mm
; support material extrusion width = 0.40mm
; first layer extrusion width = 0.50mm

M73 P0 R39
M73 Q0 S40
M201 X4000 Y4000 Z200 E2500 ; sets maximum accelerations, mm/sec^2
M203 X300 Y300 Z40 E100 ; sets maximum feedrates, mm / sec
M204 P4000 R2500 T4000 ; sets acceleration (P, T) and retract acceleration (R), mm/sec^2
M205 X8.00 Y8.00 Z2.00 E10.00 ; sets the jerk limits, mm/sec
M205 S0 T0 ; sets the minimum extruding and travel feed rate, mm/sec

M486 S0
M486 Apropeller_v1_cw.stl
M486 S-1

;TYPE:Custom
M17 ; enable steppers
M862.1 P0.4 A0 F1 ; nozzle check
M862.3 P "MK4S" ; printer model check
M862.5 P2 ; g-code level check
M862.6 P"Input shaper" ; FW feature check
M115 U6.2.6+8948

M555 X96.913 Y71.7191 W58.356 H61.944

G90 ; use absolute coordinates
M83 ; extruder relative mode

M140 S60 ; set bed temp
M104 T0 S170 ; set extruder temp for bed leveling
M109 T0 R170 ; wait for temp

M84 E ; turn off E motor

G28 ; home all without mesh bed level

G1 X42 Y-4 Z5 F4800

M302 S155 ; lower cold extrusion limit to 155C


G1 E-2 F2400 ; retraction
M73 P0 R38


M84 E ; turn off E motor

G29 P9 X10 Y-4 W32 H4

M106 S100

G0 Z40 F10000

M190 S60 ; wait for bed temp

M107

;
; MBL
;
M84 E ; turn off E motor
G29 P1 ; invalidate mbl & probe print area
G29 P1 X0 Y0 W50 H20 C ; probe near purge place
G29 P3.2 ; interpolate mbl probes
G29 P3.13 ; extrapolate mbl outside probe area
G29 A ; activate mbl

; prepare for purge
M104 S230
G0 X0 Y-4 Z15 F4800 ; move away and ready for the purge
M109 S230

G92 E0
M569 S0 E ; set spreadcycle mode for extruder

;
; Extrude purge line
;
G92 E0 ; reset extruder position
G1 E2 F2400 ; deretraction after the initial one before nozzle cleaning
G0 E7 X15 Z0.2 F500 ; purge
G0 X25 E4 F500 ; purge
G0 X35 E4 F650 ; purge
G0 X45 E4 F800 ; purge
G0 X48 Z0.05 F8000 ; wipe, move close to the bed
G0 X51 Z0.2 F8000 ; wipe, move quickly away from the bed

G92 E0
M221 S100 ; set flow to 100%
G21 ; set units to millimeters
G90 ; use absolute coordinates
M83 ; use relative distances for extrusion
M572 S0.03 ; Filament gcode

M142 S36 ; set heatbreak target temp
M107
;LAYER_CHANGE
;Z:0.2
;HEIGHT:0.2
G1 E-.7 F2100
G1 Z.8 F720
M486 S0
G1 X134.205 Y126.941 F18000
G1 Z.2 F720
G1 E.7 F1500
M204 P500
;TYPE:Support material interface
;WIDTH:0.4
G1 F2400
G1 X133.745 Y125.796 E.03664
G1 X134.247 Y126.916 E.03644
M204 P2500
M204 T4000
G1 X134.994 Y126.32 F18000
M204 P500
G1 F2400
G3 X135.002 Y126.437 I-.035 J.061 E.00411
G1 X134.587 Y125.495 E.03056
G1 X134.773 Y125.922 E.01383
M204 P2500
G1 X135.596 Y125.533 F18000
M204 P500
G1 F2400
G1 X135.349 Y125.031 E.01661
G1 X135.62 Y125.582 E.01823
M204 P2500
G1 E-.7 F2100
G1 X135.903 Y116.911 Z.351 F18000
G1 Z.2 F720
G1 E.7 F1500
M204 P500
;TYPE:Support material
;WIDTH:0.5
G1 F2400
G1 X133.321 Y117.779 E.10353
G1 X133.464 Y118.096 E.01322
G1 X133.162 Y118.232 E.01259
G1 X133.68 Y118.799 E.02919
G1 X134.01 Y120.111 E.05142
G1 X134.366 Y120.5 E.02004
G1 X134.696 Y121.811 E.05138
G1 X135.051 Y122.2 E.02002
G1 X135.382 Y123.511 E.05139
G1 X135.737 Y123.9 E.02002
G1 X136.047 Y125.13 E.04821
G1 X135.91 Y125.156 E.0053
G1 X131.188 Y116.442 E.37669
G2 X131.221 Y115.639 I-.52 J-.423 E.03275
G2 X133.328 Y114.224 I-6.253 J-11.588 E.09661
G1 X135.855 Y116.861 E.13881
M204 P2500
G1 X134.713 Y117.094 F18000
M204 P500
G1 F2400
G1 X134.713 Y116.264 E.03155
G1 X134.142 Y115.667 E.0314
G1 X134.142 Y117.069 E.05328
G1 X133.57 Y117.261 E.02293
G1 X133.57 Y115.071 E.08323
G1 X133.292 Y114.781 E.01527
G1 X132.999 Y114.998 E.01386
G1 X132.999 Y117.453 E.09331
G1 X132.759 Y117.534 E.00963
G1 X132.92 Y117.89 E.01485
G1 X132.535 Y118.063 E.01604
G1 X132.428 Y117.866 E.00852
G1 X132.428 Y115.395 E.09391
G1 X131.856 Y115.75 E.02559
G1 X131.856 Y117.243 E.05674
M204 P2500
G1 X132.999 Y119.352 F18000
M204 P500
G1 F2400
G1 X132.999 Y118.359 E.03774
M204 P2500
G1 E-.7 F2100
G1 X130.831 Y116.192 Z.254 F18000
G1 Z.2 F720
G1 E.7 F1500
M204 P500
;TYPE:Support material interface
;WIDTH:0.4
G1 F2400
G2 X130.87 Y115.912 I-.178 J-.168 E.00895
G1 X130.476 Y116.097 E.01292
G1 X130.709 Y116.33 E.00978
G1 X130.531 Y116.45 E.00637
G1 X130.313 Y116.737 E.0107
G1 X129.931 Y116.355 E.01604
G1 X129.877 Y116.38 E.00177
G1 X130.117 Y116.915 E.01741
G1 X130.181 Y116.863 E.00245
M204 P2500
G1 E-.7 F2100
G1 X113.768 Y111.219 Z.503 F18000
G1 Z.2 F720
G1 E.7 F1500
M204 P500
;TYPE:Support material
;WIDTH:0.5
G1 F2400
G2 X129.428 Y116.441 I11.131 J-7.288 E.6768
G1 X129.997 Y117.657 E.05103
G1 X133.959 Y127.501 E.4033
G1 X134.817 Y127.129 E.03554
G1 X130.409 Y117.237 E.4116
G1 X134.831 Y127.133 E.41195
G1 X135.566 Y126.497 E.03694
G1 X130.808 Y116.815 E.41001
G1 X135.582 Y126.499 E.41035
G2 X136.205 Y125.362 I-3.565 J-2.69 E.04945
G1 X136.422 Y125.6 E.01224
G1 X136.814 Y127.155 E.06095
G1 X136.423 Y128.709 E.0609
G1 X135.341 Y129.892 E.06093
G1 X134.714 Y130.13 E.02549
G3 X133.266 Y130.76 I-5.184 J-9.936 E.06007
G3 X132.458 Y131.055 I-.833 J-1.031 E.03329
G1 X132.083 Y131.338 E.01786
G2 X129.861 Y132.236 I1.068 J5.838 E.09172
G3 X127.517 Y132.429 I-1.553 J-4.555 E.0903
G3 X123.609 Y133.016 I-2.541 J-3.618 E.15571
G3 X120.187 Y133.238 I-2.041 J-4.961 E.13266
G1 X119.814 Y133.078 E.01543
G3 X114.432 Y131.622 I-1.499 J-5.131 E.22292
G3 X113.036 Y130.869 I1.699 J-4.822 E.06053
G3 X107.718 Y127.065 I.384 J-6.156 E.26191
G3 X106.151 Y123.742 I4.4 J-4.107 E.1419
G3 X109.664 Y114.017 I5.144 J-3.639 E.4609
G3 X112.292 Y111.691 I4.624 J2.578 E.13596
G3 X113.721 Y111.187 I2.798 J5.648 E.05773
M204 P2500
G1 E-.7 F2100
G1 X134.37 Y127.827 Z.663 F18000
G1 X135.856 Y129.025 Z.694
G1 Z.2 F720
G1 E.7 F1500
M204 P500
G1 F2400
G1 X135.856 Y126.833 E.08331
G1 X135.529 Y127.332 E.02267
G2 X135.328 Y127.263 I-.102 J-.03 E.01267
G3 X135.284 Y127.356 I-.035 J.04 E.00522
G1 X135.284 Y129.345 E.07559
G3 X134.713 Y129.677 I-.686 J-.524 E.02576
G1 X134.713 Y127.752 E.07316
G1 X134.664 Y127.792 E.0024
G2 X134.502 Y127.734 I-.088 J-.01 E.00901
G1 X134.142 Y127.872 E.01465
G1 X134.142 Y129.949 E.07894
G1 X133.57 Y130.205 E.02382
G1 X133.57 Y127.637 E.0976
G1 X132.999 Y126.208 E.05849
G1 X132.999 Y130.439 E.1608
G3 X132.428 Y130.644 I-.584 J-.726 E.02349
G1 X132.428 Y124.782 E.22279
G1 X131.856 Y123.369 E.05794
G1 X131.856 Y130.975 E.28908
G1 X131.285 Y131.138 E.02257
G1 X131.285 Y121.957 E.34894
G1 X130.713 Y120.543 E.05797
G1 X130.713 Y131.3 E.40883
G1 X130.142 Y131.596 E.02444
G1 X130.142 Y119.12 E.47417
G1 X129.571 Y117.76 E.05606
G1 X129.571 Y131.882 E.53673
G1 X128.999 Y132.015 E.02232
G1 X128.999 Y117.02 E.5699
G1 X128.428 Y117.186 E.0226
G1 X128.428 Y132.081 E.5661
G1 X127.857 Y132.04 E.02176
G1 X127.857 Y117.327 E.55919
G1 X127.285 Y117.439 E.02215
G1 X127.285 Y132.087 E.55672
G3 X126.714 Y132.407 I-1.062 J-1.227 E.02505
G1 X126.714 Y117.526 E.56557
G1 X126.143 Y117.589 E.02183
G1 X126.143 Y132.658 E.57272
G1 X125.571 Y132.755 E.02205
G1 X125.571 Y117.629 E.57488
G1 X125 Y117.646 E.02171
G1 X125 Y132.826 E.57694
G1 X124.429 Y132.769 E.02181
G1 X124.429 Y117.639 E.57504
G1 X123.857 Y117.609 E.02177
M73 P1 R38
G1 X123.857 Y132.664 E.57219
G2 X123.286 Y132.684 I-.267 J.539 E.02263
M73 Q1 S40
G1 X123.286 Y117.553 E.57507
G1 X122.715 Y117.472 E.02192
G1 X122.715 Y132.856 E.58469
G3 X122.143 Y132.972 I-.592 J-1.454 E.02231
G1 X122.143 Y117.366 E.59313
G1 X121.572 Y117.236 E.02226
G1 X121.572 Y133.006 E.59936
G3 X121.001 Y132.962 I-.17 J-1.526 E.02189
G1 X121.001 Y117.079 E.60365
G1 X120.429 Y116.896 E.02283
G1 X120.429 Y132.863 E.60685
G1 X119.858 Y132.65 E.02316
G1 X119.858 Y116.686 E.60673
G1 X119.287 Y116.445 E.02356
G1 X119.287 Y132.77 E.62045
G1 X118.715 Y132.864 E.02203
G1 X118.715 Y116.173 E.63436
G1 X118.144 Y115.868 E.0246
G1 X118.144 Y132.865 E.64599
G1 X117.805 Y132.865 E.01288
G1 X117.572 Y132.816 E.00905
G1 X117.572 Y115.525 E.65717
G1 X117.001 Y115.143 E.02611
G1 X117.001 Y132.695 E.66709
G1 X116.43 Y132.493 E.02302
G1 X116.43 Y114.717 E.6756
G1 X115.858 Y114.242 E.02826
G1 X115.858 Y132.24 E.68404
G1 X115.287 Y131.836 E.02658
G1 X115.287 Y113.711 E.68886
G1 X114.716 Y113.117 E.03131
G1 X114.716 Y131.322 E.69191
G2 X114.385 Y131.178 I-.378 J.414 E.01397
G1 X114.144 Y131.049 E.01039
G1 X114.144 Y112.441 E.70722
G1 X113.573 Y111.661 E.03674
G1 X113.573 Y130.744 E.72527
G1 X113.453 Y130.679 E.00519
G2 X113.002 Y130.458 I-.416 J.277 E.02
G1 X113.002 Y111.848 E.7073
G1 X112.43 Y112.091 E.02362
G1 X112.43 Y130.372 E.69479
G1 X111.859 Y130.266 E.02207
G1 X111.859 Y112.362 E.68047
G1 X111.288 Y112.744 E.02611
G1 X111.288 Y130.048 E.65766
G1 X110.716 Y129.795 E.02377
G1 X110.716 Y113.295 E.6271
G2 X110.145 Y114.019 I2.497 J2.558 E.03514
G1 X110.145 Y129.441 E.58613
G1 X109.574 Y128.978 E.02794
G1 X109.574 Y114.479 E.55105
G1 X109.002 Y114.664 E.02285
G1 X109.002 Y128.392 E.52175
G1 X108.431 Y127.573 E.03795
G1 X108.431 Y114.966 E.47915
G1 X107.86 Y115.322 E.02557
G1 X107.86 Y126.602 E.42871
G3 X107.288 Y125.78 I2.572 J-2.4 E.03819
G1 X107.288 Y115.777 E.38018
G1 X106.717 Y116.407 E.03232
G1 X106.717 Y124.482 E.3069
G2 X106.145 Y122.931 I-3.054 J.245 E.06362
G1 X106.145 Y117.261 E.2155
G2 X105.574 Y118.717 I4.338 J2.542 E.05968
G1 X105.574 Y122.158 E.13078
M204 P2500
G1 E-.7 F2100
G1 X102.442 Y102.898 Z.541 F18000
G1 Z.2 F720
G1 E.7 F1500
M204 P500
G1 F2400
G3 X102.043 Y102.887 I-.183 J-.63 E.01541
G1 X102.373 Y102.896 E.01255
M204 P2500
G1 E-.7 F2100
G1 X100.841 Y102.42 Z.228 F18000
G1 Z.2 F720
G1 E.7 F1500
M204 P500
;TYPE:Support material interface
;WIDTH:0.4
G1 F2400
G1 X101.406 Y102.435 E.01678
G1 X100.786 Y102.419 E.01841
M204 P2500
G1 X100.76 Y101.474 F18000
M204 P500
G1 F2400
G1 X101.385 Y101.543 E.01867
G1 X100.615 Y101.493 E.02291
G1 X100.362 Y101.432 E.00773
G1 X100.432 Y101.482 E.00255
M204 P2500
G1 X100.43 Y100.505 F18000
M204 P500
G1 F2400
G1 X100.479 Y100.554 E.00206
G1 X101.365 Y100.637 E.02642
M204 P2500
G1 E-.7 F2100
G1 X110.648 Y103.119 Z.368 F18000
G1 Z.2 F720
G1 E.7 F1500
M204 P500
;TYPE:Support material
;WIDTH:0.5
G1 F2400
G2 X111.605 Y103.502 I.646 J-.228 E.04434
G2 X111.757 Y105.98 I13.219 J.432 E.0945
G1 X108.283 Y104.968 E.13752
G1 X108.482 Y104.283 E.02711
G1 X108.049 Y104.239 E.01654
G1 X108.049 Y103.921 E.01209
G3 X106.108 Y103.569 I.567 J-8.663 E.07514
G1 X106.085 Y103.577 E.00093
G3 X104.309 Y103.247 I.54 J-7.828 E.06881
G1 X104.23 Y103.274 E.00317
G1 X102.714 Y103.035 E.05833
G1 X102.518 Y102.9 E.00905
G1 X110.579 Y103.117 E.30648
M204 P2500
G1 X110.716 Y105.463 F18000
M204 P500
G1 F2400
G1 X110.716 Y103.816 E.0626
G1 X110.568 Y103.714 E.00683
G2 X110.145 Y103.517 I-.337 J.171 E.01911
G1 X110.145 Y105.082 E.05948
G1 X109.574 Y104.916 E.0226
G1 X109.574 Y103.502 E.05374
G1 X109.002 Y103.486 E.02175
G1 X109.002 Y104.964 E.05617
M204 P2500
G1 X108.431 Y104.071 F18000
M204 P500
G1 F2400
G1 X108.431 Y103.471 E.0228
G1 X107.86 Y103.455 E.02171
G1 X107.86 Y103.691 E.00897
M204 P2500
G1 E-.7 F2100
G1 X111.532 Y102.99 Z.265 F18000
G1 Z.2 F720
G1 E.7 F1500
M204 P500
;TYPE:Support material interface
;WIDTH:0.4
G1 F2400
G3 X111.046 Y102.936 I-.234 J-.107 E.01917
G2 X111.042 Y102.284 I-3.711 J-.303 E.01938
G1 X111.568 Y102.81 E.02209
G1 X111.63 Y102.069 E.02208
G1 X111.577 Y102.016 E.00223
M204 P2500
G1 E-.7 F2100
G1 X132.608 Y92.202 Z.605 F18000
G1 Z.2 F720
G1 E.7 F1500
M204 P500
;TYPE:Support material
;WIDTH:0.5
G1 F2400
G2 X131.861 Y92.597 I-.126 J.665 E.03468
G2 X129.273 Y91.374 I-6.97 J11.404 E.109
G1 X129.205 Y86.882 E.17074
G1 X131.98 Y89.195 E.1373
G1 X133.062 Y89.602 E.04394
G1 X133.52 Y89.245 E.02207
G3 X134.702 Y87.845 I2.687 J1.07 E.07086
G1 X135.142 Y87.007 E.03597
G1 X135.883 Y86.443 E.03539
G1 X136.323 Y85.605 E.03597
G1 X136.947 Y85.13 E.02981
G1 X132.644 Y92.143 E.31271
M204 P2500
G1 X133.57 Y90.24 F18000
M204 P500
G1 F2400
G1 X133.57 Y89.71 E.02014
G1 X133.166 Y90.081 E.02085
G1 X132.999 Y90.018 E.00678
G1 X132.999 Y90.778 E.02888
G1 X132.428 Y91.709 E.04151
G1 X132.428 Y89.803 E.07244
G1 X131.856 Y89.588 E.02322
G1 X131.856 Y91.989 E.09125
G3 X131.566 Y91.949 I-.13 J-.132 E.01284
G1 X131.285 Y91.801 E.01207
G1 X131.285 Y89.151 E.10072
G1 X130.713 Y88.675 E.02828
G1 X130.713 Y91.517 E.10801
G1 X130.142 Y91.265 E.02372
G1 X130.142 Y87.931 E.12671
M204 P2500
G1 E-.7 F2100
G1 X132.974 Y92.768 Z.298 F18000
G1 Z.2 F720
M73 Q1 S39
G1 E.7 F1500
M204 P500
;TYPE:Support material interface
;WIDTH:0.4
G1 F2400
G1 X133.29 Y92.916 E.01036
G3 X133.54 Y92.917 I.124 J.222 E.00776
G1 X133.31 Y93.235 E.01165
G1 X132.794 Y92.728 E.02148
G2 X132.264 Y92.76 I-.25 J.266 E.01766
G1 X133.203 Y93.384 E.03347
M204 P2500
G1 E-.7 F2100
G1 X137.462 Y84.29 Z.375 F18000
G1 Z.2 F720
G1 E.7 F1500
M204 P500
;TYPE:Support material
;WIDTH:0.5
G1 F2400
G1 X137.521 Y84.194 E.00428
G1 X137.498 Y84.232 E.00169
M204 P2500
G1 X137.99 Y84.264 F18000
M204 P500
;TYPE:Support material interface
;WIDTH:0.4
G1 F2400
G1 X138.301 Y83.808 E.01639
G1 X138.088 Y84.108 E.01092
M204 P2500
G1 X137.774 Y83.792 F18000
M204 P500
;TYPE:Support material
;WIDTH:0.5
G1 F2400
G1 X137.766 Y83.804 E.00055
M204 P2500
G1 X138.862 Y84.589 F18000
M204 P500
;TYPE:Support material interface
;WIDTH:0.4
G1 F2400
G1 X138.729 Y84.765 E.00655
G1 X139.307 Y83.975 E.02906
G1 X139.277 Y83.944 E.00128
M204 P2500
G1 X140.08 Y84.489 F18000
M204 P500
G1 F2400
G1 X140.172 Y84.374 E.00437
G1 X140.133 Y84.345 E.00144
G1 X139.942 Y84.609 E.00967
G1 X139.965 Y84.633 E.00099
G1 X139.41 Y85.344 E.02678
G1 X139.501 Y85.23 E.00433
M204 P2500
G1 E-.7 F2100
G1 X141.773 Y81.621 Z.274 F18000
G1 Z.2 F720
G1 E.7 F1500
M204 P500
;TYPE:Support material
;WIDTH:0.5
G1 F2400
G1 X142.675 Y81.963 E.03666
G2 X143.58 Y82.612 I1.359 J-.941 E.04317
G2 X144.492 Y83.208 I1.199 J-.839 E.04243
G2 X145.64 Y84.13 I2.597 J-2.059 E.05643
G2 X145.782 Y84.373 I.214 J.038 E.01163
G1 X146.734 Y85.217 E.04835
G2 X147.478 Y85.858 I1.098 J-.523 E.03842
G3 X148.822 Y87.836 I-3.26 J3.66 E.09182
G1 X149.018 Y89.149 E.05046
G3 X149.808 Y90.044 I-1.945 J2.515 E.04564
G3 X153.026 Y95.997 I-1.63 J4.727 E.28249
G3 X153.317 Y97.346 I-3.727 J1.508 E.05271
G3 X154.543 Y102.383 I-4.472 J3.756 E.20415
G3 X150.12 Y110.926 I-5.785 J2.421 E.41669
G3 X141.878 Y111.548 I-4.474 J-4.364 E.34323
M73 P2 R38
G3 X136.944 Y109.583 I-.408 J-6.15 E.20868
G2 X133.468 Y93.758 I-12.052 J-5.647 E.66203
G1 X134.236 Y92.66 E.05093
G1 X140.78 Y84.306 E.40332
G1 X140.028 Y83.749 E.03557
G1 X133.673 Y92.503 E.41113
G1 X140.025 Y83.735 E.4115
M73 Q2 S39
G1 X139.107 Y83.417 E.03692
G1 X133.116 Y92.356 E.40898
G1 X139.1 Y83.401 E.40934
G2 X137.893 Y83.417 I-.546 J4.46 E.04602
G1 X138.336 Y82.573 E.03623
G1 X139.546 Y81.653 E.05777
G1 X141.021 Y81.419 E.05676
G1 X141.707 Y81.603 E.02699
M204 P2500
G1 X154.139 Y107.577 F18000
M204 P500
G1 F2400
G1 X154.139 Y99.912 E.29132
G2 X153.567 Y98.437 I-4.998 J1.087 E.06037
G1 X153.567 Y108.131 E.36843
G3 X152.996 Y108.844 I-3.178 J-1.962 E.0348
G1 X152.996 Y97.604 E.42719
G1 X152.92 Y97.507 E.00468
G2 X152.592 Y95.992 I-4.515 J.184 E.05921
G2 X152.425 Y93.072 I-4.273 J-1.22 E.11327
G1 X152.425 Y109.391 E.62023
G1 X151.853 Y109.773 E.02614
G1 X151.853 Y92.026 E.6745
G1 X151.282 Y91.402 E.03215
G1 X151.282 Y110.094 E.71041
G1 X150.711 Y110.338 E.0236
G1 X150.711 Y90.95 E.73687
G1 X150.139 Y90.596 E.02557
G1 X150.139 Y110.5 E.75648
G2 X149.568 Y110.885 I.168 J.865 E.02689
G1 X149.568 Y90.396 E.77871
G1 X148.997 Y89.657 E.03549
G1 X148.997 Y111.336 E.82394
G1 X148.425 Y111.71 E.02597
G1 X148.425 Y87.966 E.90242
G1 X147.955 Y86.98 E.04151
G1 X147.854 Y86.871 E.00565
G1 X147.854 Y111.954 E.95331
G1 X147.283 Y112.162 E.0231
G1 X147.283 Y86.252 E.98474
G1 X146.711 Y85.889 E.02575
G1 X146.711 Y112.293 E1.00352
G1 X146.14 Y112.369 E.02189
G1 X146.14 Y85.24 E1.03107
G1 X145.569 Y84.734 E.029
G1 X145.569 Y112.395 E1.05129
G1 X144.997 Y112.352 E.0218
G1 X144.997 Y84.212 E1.0695
G3 X144.426 Y83.748 I.725 J-1.476 E.0282
G1 X144.426 Y112.274 E1.08417
