; generated by PrusaSlicer 2.9.4 on 2026-02-15 at 21:37:11 UTC


;
;

;
;

;
;

;
;
; 

; external perimeters extrusion width = 0.45mm
; perimeters extrusion width = 0.45mm
; infill extrusion width = 0.45mm
; solid infill extrusion width = 0.45mm
; top infill extrusion width = 0.42mm
; support material extrusion width = 0.40mm
; first layer extrusion width = 0.50mm

M73 P0 R51
M73 Q0 S54
M201 X4000 Y4000 Z200 E2500 ; sets maximum accelerations, mm/sec^2
M203 X300 Y300 Z40 E100 ; sets maximum feedrates, mm / sec
M204 P4000 R2500 T4000 ; sets acceleration (P, T) and retract acceleration (R), mm/sec^2
M205 X8.00 Y8.00 Z2.00 E10.00 ; sets the jerk limits, mm/sec
M205 S0 T0 ; sets the minimum extruding and travel feed rate, mm/sec

M486 S0
M486 Apropeller_v2_ccw.stl
M486 S-1

;TYPE:Custom
M17 ; enable steppers
M862.1 P0.4 A0 F1 ; nozzle check
M862.3 P "MK4S" ; printer model check
M862.5 P2 ; g-code level check
M862.6 P"Input shaper" ; FW feature check
M115 U6.2.6+8948

M555 X94.8322 Y71.2064 W61.6025 H65.0239

G90 ; use absolute coordinates
M83 ; extruder relative mode

M140 S60 ; set bed temp
M104 T0 S170 ; set extruder temp for bed leveling
M109 T0 R170 ; wait for temp

M84 E ; turn off E motor

G28 ; home all without mesh bed level

G1 X42 Y-4 Z5 F4800

M302 S155 ; lower cold extrusion limit to 155C


G1 E-2 F2400 ; retraction


M84 E ; turn off E motor

G29 P9 X10 Y-4 W32 H4

M106 S100

G0 Z40 F10000

M190 S60 ; wait for bed temp

M107

;
; MBL
;
M84 E ; turn off E motor
G29 P1 ; invalidate mbl & probe print area
G29 P1 X0 Y0 W50 H20 C ; probe near purge place
G29 P3.2 ; interpolate mbl probes
G29 P3.13 ; extrapolate mbl outside probe area
G29 A ; activate mbl

; prepare for purge
M104 S230
G0 X0 Y-4 Z15 F4800 ; move away and ready for the purge
M109 S230

G92 E0
M569 S0 E ; set spreadcycle mode for extruder

;
; Extrude purge line
;
G92 E0 ; reset extruder position
G1 E2 F2400 ; deretraction after the initial one before nozzle cleaning
G0 E7 X15 Z0.2 F500 ; purge
G0 X25 E4 F500 ; purge
G0 X35 E4 F650 ; purge
G0 X45 E4 F800 ; purge
G0 X48 Z0.05 F8000 ; wipe, move close to the bed
G0 X51 Z0.2 F8000 ; wipe, move quickly away from the bed

G92 E0
M221 S100 ; set flow to 100%
G21 ; set units to millimeters
G90 ; use absolute coordinates
M83 ; use relative distances for extrusion
M572 S0.03 ; Filament gcode

M142 S36 ; set heatbreak target temp
M107
;LAYER_CHANGE
;Z:0.1
;HEIGHT:0.1
G1 E-.7 F2100
G1 Z.7 F720
M486 S0
G1 X113.531 Y106.07 F18000
G1 Z.1 F720
G1 E.7 F1500
M204 P500
;TYPE:Support material
;WIDTH:0.5
G1 F2400
G1 X113.91 Y106.087 E.00755
G3 X114.144 Y106.287 I.042 J.187 E.00711
G2 X135.503 Y113.384 I12.92 J-3.194 E.53361
G1 X135.631 Y113.51 E.00357
G1 X135.873 Y114.431 E.01895
G1 X136.521 Y115.072 E.01813
G1 X136.773 Y115.992 E.01898
G1 X137.444 Y116.656 E.01878
G1 X137.697 Y117.576 E.01898
G1 X138.367 Y118.24 E.01877
G1 X138.62 Y119.16 E.01898
G1 X139.29 Y119.824 E.01877
G2 X139.563 Y120.291 I.643 J-.062 E.0111
G1 X139.815 Y121.211 E.01898
G1 X140.486 Y121.875 E.01878
G1 X140.739 Y122.795 E.01898
G1 X141.409 Y123.458 E.01875
G1 X141.662 Y124.379 E.019
G1 X142.332 Y125.042 E.01875
G2 X142.904 Y125.872 I1.254 J-.252 E.02061
G1 X143.346 Y127.494 E.03345
G1 X142.921 Y129.123 E.03349
G1 X141.735 Y130.327 E.03362
G1 X141.626 Y130.357 E.00225
G3 X140.088 Y131.696 I-3.534 J-2.505 E.04096
G3 X136.684 Y134.249 I-4.561 J-2.536 E.08719
G3 X129.094 Y135.088 I-4.346 J-4.567 E.16319
G3 X121.504 Y131.651 I-1.779 J-6.169 E.18039
G3 X117.832 Y122.513 I1.856 J-6.053 E.22449
G3 X117.282 Y121.181 I6.647 J-3.525 E.02871
G3 X115.528 Y118.257 I3.035 J-3.807 E.06931
G3 X113.459 Y106.067 I-2.487 J-5.849 E.45647
M73 Q0 S53
M204 P2500
G1 E-.7 F2100
M204 T4000
G1 X134.089 Y122.729 Z.563 F18000
G1 X137.145 Y125.197 Z.623
G1 X140.2 Y127.665 Z.666
G1 X142.347 Y129.399 Z.686
G1 Z.1 F720
G1 E.7 F1500
M204 P500
G1 F2400
G1 X142.347 Y125.925 E.06912
G3 X141.948 Y125.267 I.521 J-.766 E.01579
G1 X141.749 Y125.071 E.00556
G1 X141.749 Y129.699 E.09208
G2 X141.151 Y130.242 I6.089 J7.311 E.01608
G1 X141.151 Y124.144 E.12132
G2 X140.553 Y123.217 I-1.326 J.199 E.02262
G1 X140.553 Y130.909 E.15304
G1 X139.954 Y131.274 E.01396
G1 X139.954 Y121.954 E.18542
G1 X139.43 Y121.436 E.01466
G1 X139.356 Y121.165 E.00559
G1 X139.356 Y132.04 E.21636
G1 X138.758 Y132.704 E.01778
G1 X138.758 Y119.903 E.25468
G1 X138.235 Y119.385 E.01465
G1 X138.16 Y119.111 E.00565
G1 X138.16 Y133.143 E.27917
G3 X137.562 Y133.479 I-1.284 J-1.585 E.01371
G1 X137.562 Y118.048 E.30701
G1 X137.312 Y117.801 E.00699
G1 X137.059 Y116.881 E.01898
G1 X136.963 Y116.786 E.00269
G1 X136.963 Y133.747 E.33745
G2 X136.365 Y133.958 I-.003 J.942 E.01287
G1 X136.365 Y116.133 E.35464
G1 X136.136 Y115.297 E.01725
G1 X135.767 Y114.932 E.01033
G1 X135.767 Y134.449 E.3883
G1 X135.169 Y134.844 E.01426
G1 X135.169 Y114.186 E.411
G1 X134.571 Y114.6 E.01447
G1 X134.571 Y135.103 E.40791
G1 X133.973 Y135.319 E.01265
G1 X133.973 Y114.969 E.40487
G1 X133.374 Y115.297 E.01359
G1 X133.374 Y135.456 E.40107
G1 X132.776 Y135.527 E.01198
G1 X132.776 Y115.588 E.39669
G1 X132.178 Y115.845 E.01295
G1 X132.178 Y135.554 E.39212
G1 X131.58 Y135.492 E.01196
G1 X131.58 Y116.069 E.38643
G1 X130.982 Y116.261 E.0125
G1 X130.982 Y135.405 E.38088
G1 X130.384 Y135.211 E.01251
G1 X130.384 Y116.425 E.37375
G1 X129.785 Y116.56 E.01222
G1 X129.785 Y134.971 E.36629
G1 X129.187 Y134.65 E.0135
G1 X129.187 Y116.667 E.35778
G1 X128.589 Y116.748 E.01201
G1 X128.589 Y134.762 E.3584
G1 X127.991 Y134.877 E.01212
G1 X127.991 Y116.803 E.35959
G1 X127.393 Y116.831 E.01191
G1 X127.393 Y134.904 E.35957
G1 X126.795 Y134.886 E.0119
G1 X126.795 Y116.831 E.35921
G1 X126.196 Y116.806 E.01193
G1 X126.196 Y134.805 E.3581
G1 X125.598 Y134.651 E.01229
G1 X125.598 Y116.754 E.35607
G1 X125 Y116.676 E.012
G1 X125 Y134.457 E.35376
G1 X124.402 Y134.141 E.01346
G1 X124.402 Y116.571 E.34956
G1 X123.804 Y116.439 E.01218
G1 X123.804 Y133.759 E.34459
G1 X123.205 Y133.282 E.01523
G1 X123.205 Y116.278 E.3383
G1 X122.607 Y116.089 E.01248
G1 X122.607 Y132.6 E.32849
G1 X122.009 Y131.656 E.02223
G1 X122.009 Y115.868 E.31411
G1 X121.411 Y115.615 E.01292
G1 X121.411 Y131.168 E.30943
G1 X120.813 Y130.921 E.01287
G1 X120.813 Y115.327 E.31025
G1 X120.215 Y115.002 E.01354
G1 X120.215 Y130.599 E.31031
G1 X119.616 Y130.147 E.01493
M73 P1 R51
G1 X119.616 Y114.637 E.30858
G1 X119.018 Y114.228 E.01441
G1 X119.018 Y129.576 E.30535
G3 X118.42 Y128.804 I2.535 J-2.581 E.01949
M73 Q1 S53
G1 X118.42 Y113.77 E.29911
G1 X117.822 Y113.258 E.01566
G1 X117.822 Y121.457 E.16312
G2 X117.224 Y120.567 I-1.195 J.157 E.02211
G1 X117.224 Y112.684 E.15684
G1 X116.626 Y112.024 E.01772
G1 X116.626 Y119.823 E.15516
G3 X116.027 Y118.521 I3.489 J-2.392 E.02865
G1 X116.027 Y111.275 E.14416
G1 X115.429 Y110.396 E.02115
G1 X115.429 Y117.831 E.14792
G1 X114.831 Y118.075 E.01285
G1 X114.831 Y109.345 E.17369
G1 X114.233 Y107.998 E.02932
G1 X114.233 Y118.211 E.20319
G1 X113.635 Y118.308 E.01205
G1 X113.635 Y106.506 E.23481
G1 X113.037 Y106.479 E.01191
G1 X113.037 Y118.335 E.23588
G1 X112.438 Y118.299 E.01194
G1 X112.438 Y106.515 E.23445
G1 X111.84 Y106.596 E.01201
G1 X111.84 Y118.218 E.23122
G1 X111.242 Y118.044 E.01239
G1 X111.242 Y106.769 E.22432
G1 X110.644 Y106.979 E.01261
G1 X110.644 Y117.835 E.21598
G1 X110.046 Y117.513 E.01351
G1 X110.046 Y107.301 E.20317
G1 X109.447 Y107.709 E.01442
G1 X109.447 Y117.105 E.18694
G1 X108.849 Y116.595 E.01564
G1 X108.849 Y108.219 E.16664
G1 X108.251 Y108.904 E.01809
G1 X108.251 Y115.91 E.13939
G1 X107.653 Y114.869 E.02389
G1 X107.653 Y109.481 E.1072
M204 P2500
G1 E-.7 F2100
G1 X117.822 Y128.201 Z.472 F18000
G1 Z.1 F720
G1 E.7 F1500
M204 P500
G1 F2400
G1 X117.822 Y122.972 E.10403
M204 P2500
G1 E-.7 F2100
G1 X123.06 Y96.975 Z.563 F18000
G1 X123.835 Y93.125 Z.623
G1 X124.611 Y89.275 Z.666
G1 X126.163 Y81.575 Z.7
G1 X126.486 Y79.967
G1 Z.1 F720
G1 E.7 F1500
M204 P500
G1 F2400
G3 X130.916 Y90.358 I-.463 J6.338 E.27682
G2 X113.934 Y105.251 I-3.854 J12.733 E.53673
G1 X113.79 Y105.291 E.00297
G1 X112.842 Y105.055 E.01944
G1 X111.947 Y105.295 E.01844
G1 X111.045 Y105.053 E.01858
G1 X110.114 Y105.302 E.01917
G1 X109.211 Y105.061 E.01859
G1 X108.28 Y105.31 E.01917
G1 X107.378 Y105.068 E.01858
G1 X106.447 Y105.318 E.01918
G2 X105.759 Y105.296 I-.368 J.743 E.01412
G1 X104.903 Y105.067 E.01763
G1 X103.926 Y105.328 E.02012
G1 X103.024 Y105.086 E.01858
G1 X102.093 Y105.336 E.01918
G1 X101.19 Y105.094 E.0186
G1 X100.259 Y105.343 E.01917
G2 X99.432 Y105.393 I-.357 J.958 E.01697
G1 X97.802 Y104.956 E.03357
G1 X96.609 Y103.762 E.03358
G1 X96.172 Y102.132 E.03357
G2 X96.204 Y101.402 I-.706 J-.397 E.01508
G2 X95.12 Y99.734 I-2.179 J.229 E.04108
G1 X95.072 Y97.618 E.04211
G3 X95.766 Y95.431 I6.387 J.824 E.04589
G1 X95.862 Y95.3 E.00323
G3 X96.232 Y93.953 I4.556 J.525 E.0279
G3 X97.035 Y91.053 I5.97 J.093 E.06052
G3 X106.162 Y85.041 I6.344 J-.303 E.26183
G3 X108.151 Y84.726 I1.941 J5.841 E.04025
G3 X115.33 Y85.384 I3.115 J5.51 E.15259
G3 X116.297 Y85.518 I.147 J2.493 E.01955
G3 X119.723 Y85.368 I1.952 J5.401 E.06928
G3 X126.415 Y79.964 I6.253 J.898 E.18824
M204 P2500
G1 X131.58 Y88.881 F18000
M204 P500
G1 F2400
G1 X131.58 Y84.231 E.09251
G2 X130.982 Y83.074 I-6.357 J2.555 E.02595
G1 X130.982 Y89.535 E.12854
G1 X130.747 Y89.858 E.00795
G1 X130.384 Y89.764 E.00746
G1 X130.384 Y82.294 E.14862
G1 X129.785 Y81.722 E.01648
G1 X129.785 Y89.629 E.15731
G1 X129.187 Y89.522 E.01209
G1 X129.187 Y81.307 E.16344
G1 X128.589 Y80.967 E.01369
G1 X128.589 Y89.441 E.16859
G1 X127.991 Y89.386 E.01195
G1 X127.991 Y80.712 E.17257
G1 X127.393 Y80.547 E.01234
G1 X127.393 Y89.358 E.1753
G1 X126.795 Y89.357 E.0119
G1 X126.795 Y80.412 E.17796
G1 X126.196 Y80.386 E.01193
G1 X126.196 Y89.383 E.179
G1 X125.598 Y89.435 E.01194
G1 X125.598 Y80.385 E.18005
G1 X125 Y80.466 E.01201
G1 X125 Y89.513 E.17999
G1 X124.402 Y89.618 E.01208
G1 X124.402 Y80.601 E.1794
G1 X123.804 Y80.795 E.01251
G1 X123.804 Y89.75 E.17816
G1 X123.205 Y89.911 E.01234
G1 X123.205 Y81.089 E.17552
G1 X122.734 Y81.343 E.01065
G1 X122.607 Y81.444 E.00323
G1 X122.607 Y90.1 E.17221
G1 X122.009 Y90.321 E.01268
G1 X122.009 Y81.921 E.16712
G1 X121.411 Y82.568 E.01753
G1 X121.411 Y90.574 E.15928
G1 X120.813 Y90.862 E.01321
G1 X120.813 Y83.457 E.14733
G2 X120.215 Y85.074 I4.203 J2.475 E.03448
G1 X120.215 Y91.187 E.12162
G1 X119.616 Y91.552 E.01396
G1 X119.616 Y85.787 E.1147
G1 X119.018 Y85.69 E.01205
G1 X119.018 Y91.961 E.12476
G1 X118.42 Y92.419 E.01499
G1 X118.42 Y85.598 E.13571
G1 X117.822 Y85.631 E.01192
G1 X117.822 Y92.931 E.14524
G1 X117.224 Y93.505 E.01649
G1 X117.224 Y85.707 E.15514
G1 X116.626 Y85.873 E.01235
G1 X116.626 Y94.165 E.16497
G1 X116.027 Y94.914 E.01908
G1 X116.027 Y85.891 E.17952
G2 X115.429 Y85.817 I-.488 J1.492 E.01206
M73 P1 R50
G1 X115.429 Y95.793 E.19848
G1 X114.831 Y96.844 E.02406
G1 X114.831 Y85.54 E.2249
G1 X114.233 Y85.145 E.01426
G1 X114.233 Y98.191 E.25956
G2 X113.635 Y100.207 I12.234 J4.727 E.04188
G1 X113.635 Y84.851 E.30551
G1 X113.037 Y84.606 E.01286
G1 X113.037 Y104.66 E.39898
G2 X112.438 Y104.717 I-.228 J.772 E.01227
G1 X112.438 Y84.469 E.40284
G1 X111.84 Y84.371 E.01206
G1 X111.84 Y104.82 E.40684
G1 X111.242 Y104.66 E.01232
G1 X111.242 Y84.344 E.40419
G1 X110.984 Y84.332 E.00514
G1 X110.644 Y84.379 E.00683
G1 X110.644 Y104.715 E.40459
G1 X110.114 Y104.857 E.01092
G1 X110.046 Y104.838 E.0014
G1 X110.046 Y84.46 E.40543
G1 X109.447 Y84.632 E.0124
G1 X109.447 Y104.678 E.39882
G2 X108.849 Y104.712 I-.261 J.689 E.01227
G1 X108.849 Y84.84 E.39536
G1 X108.251 Y85.157 E.01347
G1 X108.251 Y104.856 E.39192
G1 X107.653 Y104.696 E.01232
G1 X107.653 Y85.175 E.38838
G1 X107.055 Y85.258 E.01201
G1 X107.055 Y104.709 E.38698
G1 X106.457 Y104.869 E.01232
G1 X106.457 Y85.394 E.38746
G3 X105.858 Y85.379 I-.289 J-.433 E.0127
G1 X105.858 Y104.823 E.38685
G3 X105.26 Y104.716 I-.095 J-1.194 E.01222
G1 X105.26 Y85.124 E.38979
G1 X104.662 Y84.98 E.01224
G1 X104.662 Y104.685 E.39204
G1 X104.064 Y104.845 E.01232
G1 X104.064 Y84.866 E.39749
G1 X103.466 Y84.839 E.01191
G1 X103.466 Y104.759 E.39632
G2 X102.868 Y104.682 I-.403 J.774 E.01225
M73 P2 R50
G1 X102.868 Y84.858 E.39441
G1 X102.269 Y84.939 E.01203
G1 X102.269 Y104.842 E.39598
G3 X101.671 Y104.777 I-.216 J-.788 E.01226
G1 X101.671 Y85.094 E.3916
G1 X101.073 Y85.289 E.01251
M73 Q2 S53
G1 X101.073 Y104.68 E.38579
G1 X100.475 Y104.84 E.01232
G1 X100.475 Y85.606 E.38267
G1 X99.877 Y85.989 E.01413
G1 X99.877 Y104.828 E.37481
G3 X99.279 Y104.906 I-.406 J-.78 E.01225
G1 X99.279 Y86.466 E.36687
G1 X98.68 Y87.15 E.01809
G1 X98.68 Y104.745 E.35006
G1 X98.082 Y104.585 E.01232
G1 X98.082 Y88.097 E.32803
G2 X97.484 Y90.13 I5.713 J2.785 E.04236
G1 X97.484 Y104.029 E.27653
G3 X96.886 Y103.133 I.719 J-1.128 E.02206
G1 X96.886 Y92.486 E.21183
G2 X96.663 Y94.036 I5.149 J1.533 E.03127
G2 X96.288 Y95.369 I4.074 J1.865 E.02766
G1 X96.288 Y100.34 E.0989
G2 X95.689 Y99.647 I-1.35 J.559 E.01854
G1 X95.689 Y96.137 E.06983
M204 P2500
G1 E-.7 F2100
G1 X120.63 Y87.124 Z.563 F18000
G1 X124.324 Y85.789 Z.623
G1 X128.017 Y84.455 Z.666
G1 X135.405 Y81.785 Z.7
G1 X147.018 Y77.589
G1 Z.1 F720
G1 E.7 F1500
M204 P500
G1 F2400
G3 X151.585 Y80.747 I-.954 J6.259 E.11436
G3 X153.848 Y84.455 I-4.123 J5.061 E.08811
G3 X155.024 Y87.734 I-4.803 J3.572 E.07032
G3 X153.01 Y96.879 I-5.181 J3.654 E.2096
G3 X149.724 Y101.039 I-6.131 J-1.466 E.10886
G3 X146.607 Y105.779 I-6.342 J-.776 E.11695
G3 X136.303 Y112.671 I-4.372 J4.612 E.45354
G2 X131.875 Y90.686 I-9.236 J-9.578 E.53068
M73 Q2 S52
G1 X132.026 Y90.136 E.01135
G1 X132.675 Y89.491 E.0182
G1 X132.934 Y88.542 E.01957
G1 X133.582 Y87.898 E.01818
G1 X133.842 Y86.948 E.0196
G1 X134.49 Y86.305 E.01816
G1 X134.751 Y85.353 E.01964
G1 X135.398 Y84.713 E.01811
G1 X135.659 Y83.759 E.01968
G2 X136.191 Y82.875 I-.683 J-1.013 E.02119
G1 X136.847 Y82.219 E.01846
G1 X137.098 Y81.282 E.0193
G1 X137.758 Y80.622 E.01857
G1 X138.008 Y79.69 E.0192
G1 X138.565 Y79.132 E.01569
G1 X138.871 Y77.99 E.02352
G1 X140.062 Y76.796 E.03355
G1 X141.598 Y76.382 E.03165
G1 X142.449 Y76.55 E.01726
G3 X143.665 Y76.311 I1.482 J4.327 E.02473
G1 X144.358 Y75.455 E.02191
G1 X146.962 Y77.544 E.06642
M204 P2500
G1 X155.507 Y93.705 F18000
M204 P500
G1 F2400
G1 X155.507 Y89.732 E.07904
G2 X154.909 Y88.309 I-5.529 J1.486 E.0308
G1 X154.909 Y94.442 E.12202
G1 X154.311 Y95.266 E.02026
G1 X154.311 Y86.284 E.1787
G2 X153.712 Y85 I-5.372 J1.722 E.02826
G1 X153.712 Y95.844 E.21575
G1 X153.114 Y96.295 E.0149
G1 X153.114 Y83.514 E.25428
G2 X152.516 Y82.412 I-4.719 J1.849 E.02501
G1 X152.516 Y97.05 E.29123
G3 X151.918 Y98.447 I-5.428 J-1.498 E.03033
G1 X151.918 Y81.661 E.33396
G1 X151.32 Y81.089 E.01646
G1 X151.32 Y99.27 E.36172
G1 X150.721 Y99.844 E.01651
G1 X150.721 Y80.245 E.38993
G2 X150.123 Y79.586 I-2.566 J1.731 E.01777
G1 X150.123 Y100.291 E.41193
G1 X149.525 Y100.655 E.01393
G1 X149.525 Y79.078 E.42928
G1 X148.927 Y78.685 E.01424
G1 X148.927 Y102.446 E.47273
G1 X148.329 Y103.574 E.0254
G1 X148.329 Y78.409 E.50067
G1 X147.731 Y78.179 E.01275
G1 X147.731 Y104.312 E.51993
G1 X147.132 Y104.89 E.01656
G1 X147.132 Y78.041 E.53417
G3 X146.534 Y77.753 I.018 J-.8 E.01362
G1 X146.534 Y105.571 E.55345
M204 P2500
G1 X147.731 Y113.097 F18000
M204 P500
G1 F2400
G1 X147.731 Y108.159 E.09824
G2 X147.132 Y107.056 I-4.738 J1.856 E.02504
G1 X147.132 Y113.704 E.13226
G1 X146.534 Y114.455 E.0191
G1 X146.534 Y106.007 E.16808
M204 P2500
G1 X145.936 Y115.285 F18000
M204 P500
G1 F2400
G1 X145.936 Y77.273 E.75626
G1 X145.338 Y76.793 E.01526
G1 X145.338 Y115.422 E.76854
G1 X144.74 Y115.746 E.01353
G1 X144.74 Y76.313 E.78453
G1 X144.423 Y76.059 E.00808
G1 X144.142 Y76.407 E.0089
G1 X144.142 Y116.002 E.78776
G1 X143.543 Y116.153 E.01229
G1 X143.543 Y76.742 E.7841
G1 X142.945 Y76.86 E.01213
G1 X142.945 Y116.275 E.78418
G1 X142.347 Y116.302 E.01191
G1 X142.347 Y76.969 E.78254
G1 X141.749 Y76.851 E.01213
G1 X141.749 Y116.291 E.78467
G1 X141.151 Y116.21 E.01201
G1 X141.151 Y76.949 E.78111
G1 X140.553 Y77.11 E.01232
G1 X140.553 Y100.469 E.46474
G2 X139.954 Y98.342 I-13.612 J2.68 E.04401
G1 X139.954 Y77.514 E.41438
G1 X139.356 Y78.113 E.01684
M73 P3 R50
