; generated by PrusaSlicer 2.9.4 on 2026-02-24 at 22:44:50 UTC


;
;

;
;

;
;

;
;
; 

; external perimeters extrusion width = 0.45mm
; perimeters extrusion width = 0.45mm
; infill extrusion width = 0.45mm
; solid infill extrusion width = 0.45mm
; top infill extrusion width = 0.42mm
; first layer extrusion width = 0.50mm

M73 P0 R114
M73 Q0 S119
M201 X4000 Y4000 Z200 E2500 ; sets maximum accelerations, mm/sec^2
M203 X300 Y300 Z40 E100 ; sets maximum feedrates, mm / sec
M204 P4000 R2500 T4000 ; sets acceleration (P, T) and retract acceleration (R), mm/sec^2
M205 X8.00 Y8.00 Z2.00 E10.00 ; sets the jerk limits, mm/sec
M205 S0 T0 ; sets the minimum extruding and travel feed rate, mm/sec

M486 S0
M486 AShroud.stl
M486 S-1

;TYPE:Custom
M17 ; enable steppers
M862.1 P0.4 A0 F1 ; nozzle check
M862.3 P "MK4S" ; printer model check
M862.5 P2 ; g-code level check
M862.6 P"Input shaper" ; FW feature check
M115 U6.2.6+8948

M555 X92.5 Y68.5013 W64.9948 H68.9974

G90 ; use absolute coordinates
M83 ; extruder relative mode

M140 S60 ; set bed temp
M104 T0 S170 ; set extruder temp for bed leveling
M109 T0 R170 ; wait for temp

M84 E ; turn off E motor

G28 ; home all without mesh bed level

G1 X42 Y-4 Z5 F4800

M302 S155 ; lower cold extrusion limit to 155C


G1 E-2 F2400 ; retraction


M84 E ; turn off E motor

G29 P9 X10 Y-4 W32 H4

M106 S100

G0 Z40 F10000

M190 S60 ; wait for bed temp

M107

;
; MBL
;
M84 E ; turn off E motor
G29 P1 ; invalidate mbl & probe print area
G29 P1 X0 Y0 W50 H20 C ; probe near purge place
G29 P3.2 ; interpolate mbl probes
G29 P3.13 ; extrapolate mbl outside probe area
G29 A ; activate mbl

; prepare for purge
M104 S230
G0 X0 Y-4 Z15 F4800 ; move away and ready for the purge
M109 S230

G92 E0
M569 S0 E ; set spreadcycle mode for extruder

;
; Extrude purge line
;
G92 E0 ; reset extruder position
G1 E2 F2400 ; deretraction after the initial one before nozzle cleaning
G0 E7 X15 Z0.2 F500 ; purge
G0 X25 E4 F500 ; purge
G0 X35 E4 F650 ; purge
G0 X45 E4 F800 ; purge
G0 X48 Z0.05 F8000 ; wipe, move close to the bed
G0 X51 Z0.2 F8000 ; wipe, move quickly away from the bed

G92 E0
M221 S100 ; set flow to 100%
G21 ; set units to millimeters
G90 ; use absolute coordinates
M83 ; use relative distances for extrusion
M572 S0.03 ; Filament gcode

M142 S36 ; set heatbreak target temp
M107
;LAYER_CHANGE
;Z:0.2
;HEIGHT:0.2
G1 E-.7 F2100
G1 Z.8 F720
M486 S0
G1 X130.598 Y105.55 F18000
G1 Z.2 F720
G1 E.7 F1500
M204 P500
;TYPE:Perimeter
;WIDTH:0.499999
G1 F2400
G3 X130.578 Y105.464 I8.039 J-1.872 E.00336
G1 X130.556 Y104.756 E.02692
G1 X130.73 Y103.89 E.03357
G1 X131.119 Y103.097 E.03357
G1 X131.696 Y102.428 E.03358
G1 X132.423 Y101.928 E.03353
G1 X133.231 Y101.636 E.03265
G1 X133.737 Y101.575 E.01937
G1 X134.265 Y101.554 E.02008
G1 X134.746 Y101.629 E.0185
G1 X135.419 Y101.852 E.02695
;WIDTH:0.542626
G1 X135.806 Y102.065 E.01835
;WIDTH:0.585253
G1 X136.194 Y102.279 E.01998
G1 X136.371 Y102.488 E.01235
;WIDTH:0.542626
G1 X136.549 Y102.697 E.01141
;WIDTH:0.499999
G1 X136.881 Y103.097 E.01976
G1 X137.209 Y103.726 E.02696
G1 X137.428 Y104.581 E.03354
G1 X137.422 Y105.464 E.03356
G1 X137.192 Y106.317 E.03358
G1 X136.753 Y107.084 E.03359
;WIDTH:0.542957
G1 X136.459 Y107.414 E.01838
;WIDTH:0.585914
G1 X136.165 Y107.745 E.01999
G1 X135.9 Y107.883 E.01349
;WIDTH:0.542957
G1 X135.635 Y108.021 E.01242
;WIDTH:0.499999
G1 X135.214 Y108.233 E.01791
G1 X134.528 Y108.412 E.02695
G1 X133.646 Y108.435 E.03353
G3 X132.623 Y108.167 I1.395 J-7.404 E.04023
G1 X132.006 Y107.819 E.02692
G1 X131.4 Y107.264 E.03123
G3 X130.86 Y106.444 I5.659 J-4.317 E.03735
G3 X130.612 Y105.609 I7.777 J-2.766 E.03312
M204 P2500
M204 T250
G1 X131.044 Y105.478 F18000
M204 T4000
M204 P500
;TYPE:External perimeter
G1 F2400
G1 X131.035 Y105.45 E.00112
G1 X131.012 Y104.741 E.02696
G1 X131.176 Y103.992 E.02914
G1 X131.524 Y103.308 E.02917
G1 X132.034 Y102.736 E.02913
G1 X132.673 Y102.311 E.02917
G1 X133.375 Y102.07 E.02821
G1 X134.207 Y102.007 E.03171
G1 X134.602 Y102.062 E.01516
G1 X135.275 Y102.286 E.02696
G1 X135.922 Y102.698 E.02915
G1 X136.443 Y103.26 E.02913
G1 X136.804 Y103.937 E.02916
G1 X136.982 Y104.683 E.02915
G1 X136.965 Y105.45 E.02916
G1 X136.754 Y106.187 E.02914
G1 X136.363 Y106.847 E.02916
G1 X135.817 Y107.386 E.02916
G1 X135.152 Y107.768 E.02915
G1 X134.412 Y107.97 E.02915
G1 X133.646 Y107.978 E.02911
G1 X132.902 Y107.79 E.02917
G1 X132.23 Y107.421 E.02914
G1 X131.718 Y106.935 E.02683
G1 X131.27 Y106.241 E.03139
G1 X131.061 Y105.536 E.02795
M204 P2500
G1 X131.028 Y105.137 F18000
G1 E-.7 F2100
G1 X123.04 Y98.81 Z.378 F18000
G1 Z.2 F720
G1 E.7 F1500
M204 P500
;TYPE:Perimeter
G1 F2400
G1 X122.744 Y98.614 E.01349
G1 X122.195 Y98.004 E.03119
G3 X121.696 Y97.005 I5.324 J-3.281 E.0425
;WIDTH:0.543265
G1 X121.638 Y96.816 E.00823
;WIDTH:0.586531
G1 X121.579 Y96.627 E.00895
;WIDTH:0.629797
G1 X121.52 Y96.439 E.00962
;WIDTH:0.6444
G3 X121.506 Y95.992 I.816 J-.249 E.02263
;WIDTH:0.596267
G1 X121.537 Y95.818 E.00813
;WIDTH:0.548133
G1 X121.567 Y95.643 E.00746
;WIDTH:0.499999
G1 X121.697 Y94.993 E.02519
G1 X121.987 Y94.34 E.02716
;WIDTH:0.546086
G1 X122.053 Y94.177 E.00736
;WIDTH:0.592172
G1 X122.12 Y94.014 E.00805
G1 X122.367 Y93.759 E.01621
;WIDTH:0.546086
G1 X122.614 Y93.504 E.01485
;WIDTH:0.499999
G1 X123.326 Y92.98 E.0336
G1 X124.147 Y92.654 E.03357
G1 X125.023 Y92.547 E.03354
G1 X125.637 Y92.606 E.02344
G1 X126.317 Y92.808 E.02696
G1 X126.8 Y93.053 E.02058
G1 X127.332 Y93.466 E.0256
;WIDTH:0.537752
G1 X127.417 Y93.52 E.00414
;WIDTH:0.575505
G1 X127.501 Y93.574 E.00442
;WIDTH:0.613258
G1 X127.586 Y93.628 E.00478
G1 X127.783 Y93.923 E.01682
;WIDTH:0.57599
G1 X127.98 Y94.218 E.01572
;WIDTH:0.538722
G1 X128.317 Y95.04 E.03663
;WIDTH:0.499999
G1 X128.452 Y95.912 E.03354
G1 X128.375 Y96.684 E.02949
G3 X128.051 Y97.618 I-4.899 J-1.179 E.03763
G1 X127.541 Y98.338 E.03353
G3 X126.714 Y98.997 I-5.121 J-5.573 E.04022
G1 X126.066 Y99.284 E.02694
G1 X125.198 Y99.447 E.03357
G1 X124.317 Y99.385 E.03357
G1 X123.481 Y99.101 E.03356
G1 X123.09 Y98.843 E.0178
M204 P2500
M204 T250
G1 X123.298 Y98.439 F18000
M204 T4000
M204 P500
;TYPE:External perimeter
G1 F2400
G1 X123.006 Y98.239 E.01345
G1 X122.543 Y97.708 E.02678
G3 X122.145 Y96.917 I9.263 J-5.161 E.03366
G1 X122.009 Y96.221 E.02695
G3 X122.145 Y95.082 I4.66 J-.022 E.04371
G1 X122.399 Y94.539 E.02278
G3 X122.962 Y93.8 I3.45 J2.047 E.03539
G1 X123.587 Y93.355 E.02916
G1 X124.304 Y93.083 E.02915
G1 X125.067 Y93.002 E.02916
G1 X125.507 Y93.045 E.0168
G1 X126.187 Y93.246 E.02695
G1 X126.618 Y93.478 E.0186
G1 X127.134 Y93.894 E.02519
G1 X127.627 Y94.554 E.03131
G1 X127.893 Y95.211 E.02694
G1 X127.999 Y95.971 E.02916
G1 X127.922 Y96.626 E.02507
G3 X127.627 Y97.446 I-4.67 J-1.214 E.03317
G1 X127.174 Y98.065 E.02915
G1 X126.579 Y98.549 E.02915
G1 X125.881 Y98.866 E.02914
G1 X125.125 Y98.996 E.02915
G1 X124.361 Y98.93 E.02914
G1 X123.639 Y98.672 E.02914
G1 X123.348 Y98.473 E.0134
M204 P2500
G1 X123.023 Y98.239 F18000
G1 E-.7 F2100
G1 X121.802 Y93.485 Z.286 F18000
G1 Z.2 F720
G1 E.7 F1500
M204 P500
;TYPE:Perimeter
;WIDTH:0.589064
G1 F2400
G1 X121.777 Y93.575 E.00424
G1 X121.668 Y93.649 E.00598
;WIDTH:0.563869
G1 X121.558 Y93.722 E.00572
;WIDTH:0.538674
G1 X120.942 Y93.931 E.02681
;WIDTH:0.499999
G1 X119.793 Y94.363 E.04665
G3 X120.35 Y95.017 I-2.047 J2.307 E.03276
G1 X120.663 Y95.654 E.02697
;WIDTH:0.548133
G1 X120.736 Y95.845 E.00859
;WIDTH:0.596267
G1 X120.809 Y96.035 E.00937
;WIDTH:0.6444
G1 X120.881 Y96.225 E.01016
G1 X120.954 Y96.711 E.02458
;WIDTH:0.622719
G1 X120.931 Y96.832 E.00594
;WIDTH:0.581813
G1 X120.908 Y96.953 E.00552
;WIDTH:0.540906
G1 X120.885 Y97.074 E.0051
;WIDTH:0.499999
G1 X120.853 Y97.623 E.0209
G1 X120.662 Y98.353 E.02868
G1 X120.246 Y99.168 E.03478
G1 X119.653 Y99.863 E.03472
G1 X118.914 Y100.402 E.03476
G1 X118.094 Y100.745 E.03378
G1 X117.563 Y100.844 E.02053
;WIDTH:0.541681
G1 X117.425 Y100.88 E.00591
;WIDTH:0.583362
G1 X117.286 Y100.916 E.00645
;WIDTH:0.625043
G1 X117.147 Y100.952 E.00695
;WIDTH:0.666724
G1 X117.009 Y100.987 E.00738
G1 X116.481 Y100.919 E.02761
;WIDTH:0.64166
G1 X116.14 Y100.884 E.01707
G1 X115.888 Y100.773 E.01371
;WIDTH:0.59444
G1 X115.636 Y100.663 E.01261
;WIDTH:0.54722
G1 X115.384 Y100.552 E.01155
;WIDTH:0.499999
G1 X114.937 Y100.308 E.01936
G1 X114.454 Y99.903 E.02396
G1 X114.363 Y99.795 E.00537
G1 X113.778 Y101.369 E.06382
;WIDTH:0.545515
G1 X113.657 Y101.589 E.01049
;WIDTH:0.591031
G1 X113.537 Y101.809 E.01142
G1 X113.386 Y101.891 E.00783
;WIDTH:0.583115
G1 X113.035 Y101.899 E.01577
;WIDTH:0.541557
G1 X112.684 Y101.907 E.01456
;WIDTH:0.499999
G1 X95.01 Y101.907 E.67172
G1 X94.789 Y101.871 E.00851
;WIDTH:0.506307
G1 X94.375 Y101.49 E.02168
;WIDTH:0.543068
G1 X94.339 Y101.412 E.00357
;WIDTH:0.579829
G1 X94.303 Y101.335 E.00379
;WIDTH:0.61659
G1 X94.267 Y101.257 E.0041
G1 X94.357 Y100.571 E.033
;WIDTH:0.61631
G1 X94.488 Y99.735 E.04034
;WIDTH:0.612636
G1 X94.701 Y98.619 E.05382
;WIDTH:0.612909
G1 X94.962 Y97.485 E.05515
;WIDTH:0.615425
G3 X95.616 Y95.236 I35.597 J9.116 E.11152
;WIDTH:0.615019
G1 X95.996 Y94.158 E.05437
;WIDTH:0.614681
G1 X96.416 Y93.095 E.05434
;WIDTH:0.614296
G1 X96.875 Y92.048 E.05431
;WIDTH:0.61396
G1 X97.372 Y91.019 E.05426
;WIDTH:0.615153
G1 X97.869 Y90.081 E.05051
;WIDTH:0.615447
G1 X98.423 Y89.116 E.05297
;WIDTH:0.61572
G1 X99.01 Y88.172 E.05294
;WIDTH:0.615891
G1 X99.631 Y87.251 E.05292
;WIDTH:0.616203
G1 X100.284 Y86.353 E.05293
;WIDTH:0.616368
G1 X100.97 Y85.477 E.05305
;WIDTH:0.616526
G1 X101.686 Y84.628 E.05297
;WIDTH:0.616662
G1 X102.432 Y83.804 E.05303
;WIDTH:0.616765
G3 X104.011 Y82.24 I27.326 J26.002 E.10606
;WIDTH:0.61688
G3 X108.001 Y79.121 I21.225 J23.038 E.24196
;WIDTH:0.611954
G3 X109.973 Y77.928 I20.437 J31.561 E.10907
;WIDTH:0.612143
G1 X110.992 Y77.387 E.05461
;WIDTH:0.612282
G1 X112.029 Y76.885 E.05454
;WIDTH:0.612462
G1 X113.085 Y76.421 E.05462
;WIDTH:0.612643
G1 X114.157 Y75.997 E.05461
;WIDTH:0.61294
G1 X115.254 Y75.61 E.05514
;WIDTH:0.615382
G3 X117.503 Y74.957 I11.361 J34.905 E.11149
;WIDTH:0.61498
G1 X118.617 Y74.701 E.05437
;WIDTH:0.614651
G1 X119.732 Y74.487 E.05397
;WIDTH:0.614419
G1 X121.135 Y74.274 E.06743
;WIDTH:0.609402
G1 X121.301 Y74.337 E.00836
;WIDTH:0.572935
G1 X121.467 Y74.399 E.00781
;WIDTH:0.536467
G1 X121.633 Y74.462 E.00729
;WIDTH:0.499999
G1 X121.897 Y74.892 E.01918
G1 X121.907 Y75.724 E.03162
G1 X121.907 Y93.102 E.66047
;WIDTH:0.544532
G1 X121.842 Y93.339 E.01025
;WIDTH:0.589064
G1 X121.818 Y93.427 E.00414
M204 P2500
M204 T250
G1 X121.398 Y93.217 F18000
M204 T4000
M204 P500
;TYPE:External perimeter
;WIDTH:0.499999
G1 F2400
G1 X121.373 Y93.274 E.00237
G1 X119.78 Y93.883 E.06482
G3 X119.062 Y94.064 I-1.25 J-3.452 E.02819
G1 X118.819 Y94.201 E.0106
G1 X119.03 Y94.435 E.01198
G1 X119.35 Y94.593 E.01356
G1 X119.726 Y94.933 E.01927
G1 X119.94 Y95.219 E.01358
G1 X120.253 Y95.856 E.02697
G1 X120.41 Y96.549 E.02701
G3 X120.411 Y97.507 I-8.178 J.493 E.03643
G1 X120.219 Y98.237 E.02869
G1 X119.843 Y98.952 E.0307
G1 X119.311 Y99.56 E.0307
G1 X118.653 Y100.027 E.03067
G1 X117.927 Y100.319 E.02974
G1 X117.202 Y100.434 E.0279
G3 X116.141 Y100.329 I.016 J-5.611 E.04058
G1 X115.533 Y100.12 E.02443
G1 X115.135 Y99.891 E.01745
G1 X114.723 Y99.507 E.02141
G3 X114.378 Y98.955 I1.835 J-1.531 E.02482
G1 X114.201 Y98.819 E.00848
G1 X114.035 Y99.132 E.01347
G3 X113.695 Y100.267 I-4.741 J-.802 E.04515
G1 X113.347 Y101.214 E.03835
G1 X113.238 Y101.405 E.00836
G1 X113.102 Y101.45 E.00544
G1 X95.01 Y101.45 E.68761
G1 X94.936 Y101.438 E.00285
G1 X94.799 Y101.31 E.00713
G1 X94.784 Y101.187 E.00471
G1 X94.994 Y99.817 E.05268
G3 X114.346 Y76.475 I30.038 J5.21 E1.2061
G3 X121.195 Y74.783 I10.93 J29.537 E.26869
G1 X121.359 Y74.827 E.00645
G1 X121.45 Y75.01 E.00777
G1 X121.45 Y93.102 E.68761
G1 X121.423 Y93.162 E.0025
M204 P2500
G1 X121.085 Y93.377 F18000
G1 E-.7 F2100
G1 X119.041 Y106.586 Z.433 F18000
G1 Z.2 F720
G1 E.7 F1500
M204 P500
;TYPE:Perimeter
G1 F2400
G1 X118.881 Y106.903 E.0135
G1 X118.304 Y107.572 E.03358
G1 X117.577 Y108.072 E.03353
G1 X116.769 Y108.364 E.03265
G3 X115.691 Y108.439 I-1.019 J-6.815 E.04111
G1 X114.995 Y108.304 E.02695
G1 X114.337 Y108.011 E.02738
;WIDTH:0.546181
G1 X114.175 Y107.946 E.0073
;WIDTH:0.592362
G1 X114.013 Y107.88 E.00799
G1 X113.759 Y107.633 E.01619
;WIDTH:0.546181
G1 X113.504 Y107.386 E.01486
;WIDTH:0.499999
G1 X112.98 Y106.674 E.0336
G1 X112.755 Y106.182 E.02056
G1 X112.572 Y105.416 E.02993
G1 X112.548 Y104.878 E.02047
G1 X112.666 Y104.099 E.02994
G1 X112.847 Y103.591 E.0205
G1 X113.248 Y102.914 E.02991
;WIDTH:0.535464
G1 X113.593 Y102.499 E.0221
;WIDTH:0.567055
G1 X113.656 Y102.425 E.00424
;WIDTH:0.598646
G1 X113.72 Y102.351 E.00452
G1 X113.976 Y102.192 E.01393
;WIDTH:0.549323
G1 X114.232 Y102.034 E.01267
;WIDTH:0.499999
G1 X114.969 Y101.712 E.03057
;WIDTH:0.533779
G1 X115.439 Y101.613 E.0196
;WIDTH:0.567558
G1 X115.908 Y101.515 E.0209
;WIDTH:0.604609
G1 X115.978 Y101.494 E.00341
;WIDTH:0.64166
G1 X116.048 Y101.473 E.00364
G1 X116.546 Y101.521 E.02491
;WIDTH:0.666724
G1 X116.904 Y101.6 E.01902
G1 X117.022 Y101.658 E.00682
;WIDTH:0.625043
G1 X117.14 Y101.717 E.00639
;WIDTH:0.583362
G1 X117.258 Y101.775 E.00591
;WIDTH:0.541681
G1 X117.377 Y101.833 E.00549
;WIDTH:0.499999
G1 X117.994 Y102.181 E.02692
G1 X118.644 Y102.779 E.03357
G1 X119.121 Y103.523 E.03359
G1 X119.394 Y104.363 E.03357
G1 X119.442 Y105.177 E.03099
G3 X119.257 Y106.158 I-6.756 J-.769 E.03798
G1 X119.068 Y106.533 E.01596
M204 P2500
M204 T250
G1 X118.637 Y106.376 F18000
M204 T4000
M204 P500
;TYPE:External perimeter
G1 F2400
G1 X118.476 Y106.692 E.01348
G1 X117.966 Y107.264 E.02913
G1 X117.327 Y107.689 E.02917
G1 X116.625 Y107.93 E.02821
G1 X115.837 Y107.994 E.03005
G1 X115.083 Y107.855 E.02914
G1 X114.535 Y107.599 E.02299
G3 X113.8 Y107.038 I2.072 J-3.472 E.03522
G1 X113.355 Y106.413 E.02916
G1 X113.163 Y105.963 E.01859
G1 X113.018 Y105.316 E.0252
G1 X113.008 Y104.828 E.01855
G1 X113.117 Y104.174 E.0252
G1 X113.292 Y103.718 E.01856
G1 X113.638 Y103.152 E.02521
G1 X114.021 Y102.758 E.02088
G1 X114.504 Y102.401 E.02283
G1 X115.141 Y102.135 E.02624
G1 X115.971 Y102.001 E.03195
G1 X116.412 Y102.03 E.0168
G1 X117.098 Y102.21 E.02695
G1 X117.748 Y102.567 E.02818
G1 X118.326 Y103.108 E.03009
G1 X118.73 Y103.759 E.02912
G1 X118.955 Y104.493 E.02918
G1 X118.985 Y105.192 E.02659
G1 X118.824 Y106.008 E.03161
G1 X118.664 Y106.322 E.01339
M204 P2500
G1 X118.474 Y106.674 F18000
G1 E-.7 F2100
G1 X124.89 Y110.553 Z.331 F18000
G1 Z.2 F720
G1 E.7 F1500
M204 P500
;TYPE:Perimeter
G1 F2400
G1 X125.311 Y110.557 E.016
G3 X126.244 Y110.776 I-2.094 J11.01 E.03643
G1 X126.716 Y111.006 E.01996
G1 X127.258 Y111.387 E.02518
G3 X127.941 Y112.19 I-5.132 J5.055 E.0401
G1 X128.248 Y112.829 E.02694
G3 X128.452 Y113.833 I-8.586 J2.262 E.03896
G1 X128.433 Y114.357 E.01993
G1 X128.303 Y115.007 E.02519
G1 X128.011 Y115.663 E.02729
;WIDTH:0.54618
G1 X127.946 Y115.825 E.0073
;WIDTH:0.592361
G1 X127.88 Y115.987 E.00799
G1 X127.633 Y116.241 E.01619
;WIDTH:0.54618
G1 X127.386 Y116.496 E.01486
;WIDTH:0.499999
G1 X126.674 Y117.02 E.0336
G1 X125.854 Y117.346 E.03354
G1 X124.977 Y117.453 E.03358
G1 X124.102 Y117.334 E.03356
G1 X123.286 Y116.997 E.03355
G1 X122.667 Y116.533 E.0294
;WIDTH:0.549871
G1 X122.508 Y116.404 E.00863
;WIDTH:0.599742
G1 X122.35 Y116.275 E.00944
G1 X122.192 Y116.023 E.01377
;WIDTH:0.549871
G1 X122.035 Y115.77 E.01255
;WIDTH:0.499999
G1 X121.683 Y114.96 E.03357
G1 X121.548 Y114.088 E.03354
G1 X121.625 Y113.316 E.02949
G3 X121.949 Y112.382 I4.893 J1.177 E.03763
G1 X122.459 Y111.662 E.03353
G1 X123.136 Y111.094 E.03359
G1 X123.934 Y110.716 E.03356
G1 X124.802 Y110.553 E.03357
G1 X124.83 Y110.553 E.00106
M204 P2500
M204 T250
G1 X124.904 Y111.005 F18000
M204 T4000
M204 P500
;TYPE:External perimeter
G1 F2400
G1 X125.317 Y111.018 E.0157
G1 X126.008 Y111.176 E.02694
G1 X126.453 Y111.379 E.01859
G1 X126.995 Y111.761 E.0252
G1 X127.529 Y112.389 E.03133
G1 X127.837 Y113.027 E.02693
G1 X127.995 Y113.826 E.03096
G3 X127.851 Y114.933 I-5.389 J-.135 E.0425
G1 X127.599 Y115.465 E.02237
G3 X127.038 Y116.2 I-3.472 J-2.072 E.03522
G1 X126.413 Y116.645 E.02916
